; generated by PrusaSlicer 2.5.0+win64 on 2023-01-05 at 21:56:59 UTC

; 

; external perimeters extrusion width = 0.45mm
; perimeters extrusion width = 0.45mm
; infill extrusion width = 0.45mm
; solid infill extrusion width = 0.45mm
; top infill extrusion width = 0.40mm
; first layer extrusion width = 0.42mm

M73 P0 R57
M73 Q0 S57
M201 X1000 Y1000 Z200 E5000 ; sets maximum accelerations, mm/sec^2
M203 X200 Y200 Z12 E120 ; sets maximum feedrates, mm / sec
M204 P1250 R1250 T1250 ; sets acceleration (P, T) and retract acceleration (R), mm/sec^2
M205 X8.00 Y8.00 Z0.40 E4.50 ; sets the jerk limits, mm/sec
M205 S0 T0 ; sets the minimum extruding and travel feed rate, mm/sec
M107
;TYPE:Custom
M862.3 P "MK3S" ; printer model check
M862.1 P0.4 ; nozzle diameter check
M115 U3.9.3 ; tell printer latest fw version
G90 ; use absolute coordinates
M83 ; extruder relative mode
M104 S215 ; set extruder temp
M140 S60 ; set bed temp
M190 S60 ; wait for bed temp
M109 S215 ; wait for extruder temp
G28 W ; home all without mesh bed level
G80 ; mesh bed leveling
G1 Y-3.0 F1000.0 ; go outside print area
G92 E0.0
G1 X60.0 E9.0 F1000.0 ; intro line
G1 X100.0 E12.5 F1000.0 ; intro line
G92 E0.0
M221 S95

; Don't change E values below. Excessive value can damage the printer.
M907 E430 ; set extruder motor current
G21 ; set units to millimeters
G90 ; use absolute coordinates
M82 ; use absolute distances for extrusion
G92 E0
M900 K30 ; Filament gcode
M107
;LAYER_CHANGE
;Z:0.2
;HEIGHT:0.2
;BEFORE_LAYER_CHANGE
;G92 E0.0
;0.2


M73 P0 R56
G1 E-1.5 F2400
G92 E0
G1 Z.2 F720
;AFTER_LAYER_CHANGE
;0.2
G1 X112.105 Y94.148 F10800
G1 E1.501 F2400
M204 S800
;TYPE:Skirt/Brim
;WIDTH:0.42
G1 F1200
G1 X113.275 Y92.893 E1.55239
G1 X114.412 Y91.887 E1.59785
G1 X115.8 Y90.878 E1.64924
G1 X117.109 Y90.107 E1.6947
G1 X118.709 Y89.364 E1.74753
G1 X120.377 Y88.792 E1.80035
G1 X122.05 Y88.406 E1.85174
G1 X123.555 Y88.208 E1.8972
G1 X125.27 Y88.148 E1.94859
G1 X127.03 Y88.269 E2.00141
G1 X128.528 Y88.519 E2.04688
G1 X130.185 Y88.963 E2.09827
G1 X131.608 Y89.495 E2.14373
G1 X133.15 Y90.247 E2.19512
G1 X134.445 Y91.041 E2.24058
G1 X135.852 Y92.105 E2.29341
G1 X137.107 Y93.275 E2.34479
G1 X138.113 Y94.412 E2.39026
G1 X139.122 Y95.8 E2.44164
G1 X139.893 Y97.109 E2.48711
G1 X140.636 Y98.709 E2.53993
G1 X141.208 Y100.377 E2.59276
G1 X141.594 Y102.05 E2.64415
G1 X141.792 Y103.555 E2.68961
G1 X141.852 Y105.27 E2.741
G1 X141.759 Y106.786 E2.78646
G1 X141.491 Y108.481 E2.83785
G1 X141.111 Y109.951 E2.88331
G1 X140.505 Y111.608 E2.93614
G1 X139.729 Y113.192 E2.98896
G1 X138.82 Y114.647 E3.04035
G1 X137.896 Y115.852 E3.08581
G1 X136.725 Y117.107 E3.1372
G1 X135.588 Y118.113 E3.18267
G1 X134.159 Y119.148 E3.23549
G1 X132.673 Y120.006 E3.28688
G1 X131.291 Y120.636 E3.33234
G1 X129.669 Y121.195 E3.38373
G1 X127.95 Y121.594 E3.43655
G1 X126.445 Y121.792 E3.48202
G1 X124.73 Y121.852 E3.53341
G1 X123.214 Y121.759 E3.57887
G1 X121.519 Y121.491 E3.63026
G1 X119.815 Y121.037 E3.68308
G1 X118.392 Y120.505 E3.72855
G1 X116.808 Y119.729 E3.78137
G1 X115.353 Y118.82 E3.83276
G1 X114.148 Y117.895 E3.87822
G1 X112.893 Y116.725 E3.92961
G1 X111.887 Y115.588 E3.97507
G1 X110.878 Y114.2 E4.02646
G1 X110.107 Y112.891 E4.07192
G1 X109.364 Y111.291 E4.12475
G1 X108.805 Y109.669 E4.17614
G1 X108.406 Y107.95 E4.22896
G1 X108.208 Y106.445 E4.27442
G1 X108.148 Y104.73 E4.32581
G1 X108.241 Y103.214 E4.37128
G1 X108.519 Y101.472 E4.4241
G1 X108.963 Y99.815 E4.47549
G1 X109.495 Y98.392 E4.52095
G1 X110.271 Y96.808 E4.57378
G1 X111.18 Y95.353 E4.62516
G1 X112.068 Y94.196 E4.66883
M204 S1000
G1 X112.367 Y94.425 F10800
M204 S800
G1 F1200
G1 X113.539 Y93.162 E4.72044
G1 X114.647 Y92.182 E4.76472
G1 X116.009 Y91.193 E4.81512
G1 X117.283 Y90.442 E4.8594
G1 X118.847 Y89.715 E4.91105
G1 X120.478 Y89.156 E4.96269
G1 X122.118 Y88.777 E5.01309
G1 X123.585 Y88.584 E5.05737
G1 X125.267 Y88.525 E5.10777
G1 X126.987 Y88.643 E5.15942
G1 X128.446 Y88.887 E5.2037
G1 X130.072 Y89.323 E5.2541
M73 Q0 S56
G1 X131.457 Y89.841 E5.29838
G1 X132.97 Y90.579 E5.34879
G1 X134.231 Y91.352 E5.39307
G1 X135.575 Y92.365 E5.44347
G1 X136.838 Y93.539 E5.49511
G1 X137.818 Y94.647 E5.5394
G1 X138.807 Y96.009 E5.5898
G1 X139.558 Y97.283 E5.63408
G1 X140.285 Y98.847 E5.68572
G1 X140.844 Y100.478 E5.73737
G1 X141.223 Y102.118 E5.78777
G1 X141.416 Y103.585 E5.83205
G1 X141.475 Y105.267 E5.88245
G1 X141.357 Y106.987 E5.9341
G1 X141.113 Y108.446 E5.97838
G1 X140.677 Y110.072 E6.02878
G1 X140.159 Y111.457 E6.07306
G1 X139.421 Y112.97 E6.12347
G1 X138.509 Y114.434 E6.17511
G1 X137.609 Y115.607 E6.21939
G1 X136.461 Y116.838 E6.26979
G1 X135.353 Y117.818 E6.31408
G1 X133.957 Y118.83 E6.36572
G1 X132.499 Y119.672 E6.41612
G1 X131.153 Y120.285 E6.4604
G1 X129.562 Y120.833 E6.51081
G1 X127.882 Y121.223 E6.56245
G1 X126.415 Y121.416 E6.60673
G1 X124.733 Y121.475 E6.65713
G1 X123.257 Y121.385 E6.70141
G1 X121.554 Y121.113 E6.75306
G1 X119.928 Y120.677 E6.80346
G1 X118.543 Y120.159 E6.84774
G1 X117.03 Y119.421 E6.89814
G1 X115.566 Y118.509 E6.94979
G1 X114.393 Y117.609 E6.99407
G1 X113.162 Y116.461 E7.04447
G1 X112.182 Y115.353 E7.08875
G1 X111.17 Y113.957 E7.1404
G1 X110.328 Y112.499 E7.1908
G1 X109.715 Y111.153 E7.23508
G1 X109.156 Y109.522 E7.28672
G1 X108.777 Y107.882 E7.33713
G1 X108.584 Y106.415 E7.38141
G1 X108.525 Y104.733 E7.43181
G1 X108.615 Y103.257 E7.47609
G1 X108.887 Y101.554 E7.52774
G1 X109.323 Y99.928 E7.57814
G1 X109.841 Y98.543 E7.62242
G1 X110.599 Y96.994 E7.67406
G1 X111.491 Y95.566 E7.72447
G1 X112.33 Y94.472 E7.76575
M204 S1000
; printing object Shape-Cylinder id:0 copy 0
G1 E7.69075 F2400
;WIPE_START
G1 F8640
G1 X113.539 Y93.162 E7.22021
G1 X114.647 Y92.182 E6.82995
G1 X116.009 Y91.193 E6.38577
G1 X116.168 Y91.099 E6.337
;WIPE_END
G1 E6.26575 F2400
G92 E0
G1 X119.191 Y93.03 F10800
G1 E1.501 F2400
M204 S800
;TYPE:Perimeter
;WIDTH:0.419999
G1 F1200
G1 X120.013 Y92.657 E1.52803
G1 X120.666 Y92.413 E1.5489
G1 X121.331 Y92.203 E1.56977
G1 X122.005 Y92.028 E1.59064
G1 X122.688 Y91.89 E1.61151
G1 X123.378 Y91.787 E1.63238
G1 X124.066 Y91.72 E1.6531
G1 X125.237 Y91.69 E1.68817
G1 X125.93 Y91.72 E1.70892
G1 X126.622 Y91.787 E1.72976
G1 X127.313 Y91.89 E1.75066
G1 X127.99 Y92.028 E1.77136
G1 X129.119 Y92.341 E1.80643
G1 X129.771 Y92.571 E1.82715
G1 X130.415 Y92.838 E1.84802
G1 X131.039 Y93.136 E1.86874
G1 X132.06 Y93.713 E1.90384
G1 X132.636 Y94.095 E1.92453
G1 X133.192 Y94.507 E1.94525
G1 X134.083 Y95.267 E1.98032
G1 X134.576 Y95.752 E2.00105
G1 X135.047 Y96.266 E2.02192
G1 X135.491 Y96.804 E2.04278
G1 X135.902 Y97.36 E2.06351
G1 X136.532 Y98.349 E2.09861
G1 X136.862 Y98.957 E2.11933
G1 X137.162 Y99.585 E2.14017
G1 X137.428 Y100.229 E2.16104
G1 X137.66 Y100.882 E2.18176
G1 X137.867 Y101.629 E2.20499
G1 X138.051 Y102.398 E2.22866
G1 X138.17 Y103.084 E2.24952
G1 X138.242 Y103.673 E2.26728
G1 X138.29 Y104.462 E2.29095
G1 X138.31 Y105.237 E2.31417
G1 X138.28 Y105.929 E2.3349
G1 X138.213 Y106.623 E2.35579
G1 X138.11 Y107.312 E2.37664
G1 X137.972 Y107.99 E2.39736
G1 X137.659 Y109.119 E2.43243
G1 X137.429 Y109.771 E2.45315
G1 X137.162 Y110.415 E2.47402
G1 X136.862 Y111.044 E2.49489
G1 X136.531 Y111.652 E2.51561
G1 X135.902 Y112.64 E2.55068
G1 X135.491 Y113.196 E2.5714
G1 X135.047 Y113.734 E2.59227
G1 X134.58 Y114.244 E2.613
G1 X133.73 Y115.05 E2.64806
G1 X133.196 Y115.491 E2.66879
G1 X132.636 Y115.905 E2.68966
G1 X132.059 Y116.287 E2.71038
G1 X131.039 Y116.864 E2.74545
G1 X130.415 Y117.162 E2.76617
G1 X129.771 Y117.428 E2.78704
G1 X129.118 Y117.66 E2.80776
G1 X127.99 Y117.972 E2.84283
G1 X127.312 Y118.11 E2.86355
G1 X126.622 Y118.213 E2.88443
G1 X125.934 Y118.28 E2.90515
G1 X124.763 Y118.31 E2.94022
G1 X124.071 Y118.28 E2.96094
G1 X123.378 Y118.213 E2.98181
G1 X122.693 Y118.111 E3.00253
G1 X121.549 Y117.857 E3.03763
G1 X120.886 Y117.661 E3.05832
G1 X120.234 Y117.43 E3.07905
G1 X119.159 Y116.963 E3.11414
G1 X118.545 Y116.643 E3.13487
G1 X117.945 Y116.29 E3.15571
G1 X117.364 Y115.905 E3.17658
G1 X116.808 Y115.493 E3.1973
G1 X115.917 Y114.733 E3.23237
G1 X115.424 Y114.248 E3.25309
G1 X114.956 Y113.738 E3.27381
G1 X114.227 Y112.821 E3.30888
G1 X113.838 Y112.255 E3.32946
G1 X113.243 Y111.246 E3.36453
G1 X112.935 Y110.626 E3.38525
G1 X112.657 Y109.987 E3.40612
G1 X112.414 Y109.339 E3.42684
G1 X112.082 Y108.216 E3.46191
G1 X111.932 Y107.54 E3.48263
G1 X111.817 Y106.853 E3.5035
G1 X111.738 Y106.16 E3.52437
G1 X111.695 Y105.465 E3.54524
G1 X111.689 Y104.768 E3.56611
G1 X111.72 Y104.07 E3.58701
G1 X111.786 Y103.382 E3.6077
G1 X111.979 Y102.227 E3.64277
G1 X112.141 Y101.553 E3.66352
G1 X112.339 Y100.886 E3.68436
G1 X112.57 Y100.234 E3.70509
G1 X113.037 Y99.16 E3.74016
G1 X113.356 Y98.546 E3.76088
G1 X113.711 Y97.945 E3.78178
G1 X114.095 Y97.364 E3.80262
G1 X114.509 Y96.804 E3.82349
G1 X114.953 Y96.266 E3.84436
G1 X115.42 Y95.756 E3.86508
G1 X116.266 Y94.953 E3.90001
G1 X117.179 Y94.227 E3.93492
G1 X117.749 Y93.835 E3.95565
G1 X118.34 Y93.473 E3.97637
G1 X119.138 Y93.058 E4.00332
M204 S1000
G1 X119.017 Y92.696 F10800
M204 S800
;TYPE:External perimeter
G1 F1200
G1 X119.872 Y92.307 E4.03144
G1 X120.543 Y92.056 E4.0529
G1 X121.227 Y91.84 E4.07436
G1 X121.92 Y91.661 E4.09582
G1 X122.623 Y91.518 E4.11728
G1 X123.332 Y91.412 E4.13874
G1 X124.043 Y91.344 E4.16015
G1 X125.241 Y91.312 E4.19601
G1 X125.956 Y91.344 E4.21745
G1 X126.668 Y91.412 E4.23888
G1 X127.378 Y91.518 E4.26038
G1 X128.078 Y91.661 E4.28176
G1 X129.232 Y91.981 E4.31762
G1 X129.906 Y92.219 E4.33903
G1 X130.568 Y92.494 E4.36049
G1 X131.214 Y92.801 E4.3819
G1 X132.257 Y93.392 E4.41779
G1 X132.852 Y93.786 E4.43917
G1 X133.427 Y94.211 E4.46059
G1 X134.338 Y94.989 E4.49644
G1 X134.848 Y95.49 E4.51786
G1 X135.332 Y96.019 E4.53932
G1 X135.788 Y96.572 E4.56078
G1 X136.213 Y97.147 E4.58219
G1 X136.857 Y98.157 E4.61808
G1 X137.198 Y98.786 E4.63949
G1 X137.506 Y99.432 E4.66092
G1 X137.781 Y100.094 E4.68238
G1 X138.019 Y100.768 E4.7038
G1 X138.23 Y101.528 E4.72742
G1 X138.421 Y102.322 E4.75187
G1 X138.543 Y103.029 E4.77333
G1 X138.617 Y103.637 E4.79167
G1 X138.667 Y104.452 E4.81613
G1 X138.688 Y105.241 E4.83975
G1 X138.657 Y105.955 E4.86117
G1 X138.588 Y106.669 E4.88265
G1 X138.482 Y107.377 E4.90409
G1 X138.339 Y108.078 E4.9255
G1 X138.019 Y109.232 E4.96136
G1 X137.781 Y109.906 E4.98277
G1 X137.506 Y110.568 E5.00423
G1 X137.198 Y111.215 E5.02569
G1 X136.857 Y111.844 E5.04711
G1 X136.213 Y112.854 E5.08296
G1 X135.788 Y113.428 E5.10437
G1 X135.332 Y113.981 E5.12584
G1 X134.849 Y114.509 E5.14725
G1 X133.98 Y115.333 E5.18311
G1 X133.428 Y115.788 E5.20452
G1 X132.852 Y116.214 E5.22598
G1 X132.256 Y116.609 E5.24739
G1 X131.214 Y117.199 E5.28325
G1 X130.568 Y117.506 E5.30466
G1 X129.906 Y117.781 E5.32612
G1 X129.232 Y118.019 E5.34754
G1 X128.078 Y118.339 E5.38339
G1 X127.377 Y118.482 E5.40481
G1 X126.668 Y118.588 E5.42627
G1 X125.957 Y118.656 E5.44768
G1 X124.759 Y118.688 E5.48354
G1 X124.045 Y118.657 E5.50495
G1 X123.332 Y118.588 E5.52641
G1 X122.624 Y118.482 E5.54783
G1 X121.454 Y118.223 E5.58371
G1 X120.77 Y118.02 E5.60509
G1 X120.095 Y117.781 E5.62651
G1 X118.996 Y117.303 E5.66239
G1 X118.362 Y116.973 E5.68381
G1 X117.745 Y116.61 E5.70524
G1 X117.148 Y116.214 E5.7267
G1 X116.573 Y115.789 E5.74811
G1 X115.662 Y115.011 E5.78397
G1 X115.152 Y114.51 E5.80538
G1 X114.669 Y113.983 E5.8268
G1 X113.924 Y113.045 E5.86265
G1 X113.52 Y112.457 E5.88402
G1 X112.912 Y111.426 E5.91987
G1 X112.593 Y110.786 E5.94129
G1 X112.307 Y110.128 E5.96275
G1 X112.056 Y109.458 E5.98416
G1 X111.716 Y108.31 E6.02002
G1 X111.562 Y107.612 E6.04143
G1 X111.443 Y106.905 E6.06289
G1 X111.362 Y106.193 E6.08435
G1 X111.318 Y105.478 E6.10581
G1 X111.312 Y104.761 E6.12727
G1 X111.344 Y104.044 E6.14876
G1 X111.412 Y103.333 E6.17015
G1 X111.61 Y102.152 E6.20601
G1 X111.777 Y101.456 E6.22745
G1 X111.98 Y100.77 E6.24888
G1 X112.219 Y100.095 E6.27029
G1 X112.696 Y98.997 E6.30615
G1 X113.027 Y98.363 E6.32756
G1 X113.391 Y97.745 E6.34905
G1 X113.786 Y97.148 E6.37048
G1 X114.212 Y96.572 E6.39194
G1 X114.668 Y96.019 E6.4134
G1 X115.151 Y95.491 E6.43482
G1 X116.019 Y94.668 E6.47063
G1 X116.955 Y93.924 E6.50644
G1 X117.544 Y93.519 E6.52785
G1 X118.154 Y93.145 E6.54926
G1 X118.964 Y92.723 E6.57661
M204 S1000
G1 X119.349 Y92.919 F10800
G1 E6.50161 F2400
;WIPE_START
G1 F8640
G1 X119.872 Y92.307 E6.23802
G1 X120.543 Y92.056 E6.0489
G1 X121.227 Y91.84 E5.85975
G1 X121.92 Y91.661 E5.67061
G1 X122.623 Y91.518 E5.48148
G1 X123.332 Y91.412 E5.29232
G1 X123.877 Y91.36 E5.14786
;WIPE_END
G1 E5.07661 F2400
G92 E0
G1 X132.726 Y94.302 F10800
G1 E1.501 F2400
M204 S800
;TYPE:Solid infill
;WIDTH:0.420531
G1 F1200
G1 X134.377 Y95.954 E1.57102
G1 X134.834 Y96.452 E1.59128
G1 X135.268 Y96.978 E1.61173
G1 X135.669 Y97.52 E1.63197
G1 X136.123 Y98.233 E1.65732
G1 X131.757 Y93.867 E1.84249
G1 X130.909 Y93.387 E1.8717
G1 X130.592 Y93.236 E1.88224
G1 X136.764 Y99.408 E2.14399
G1 X137.171 Y100.349 E2.17473
G1 X129.651 Y92.829 E2.49364
G1 X128.846 Y92.558 E2.51909
G1 X137.442 Y101.154 E2.88359
G1 X137.647 Y101.893 E2.90659
G1 X128.107 Y92.353 E3.31112
G1 X127.42 Y92.2 E3.33224
G1 X137.8 Y102.58 E3.77242
G1 X137.904 Y103.218 E3.7918
G1 X126.782 Y92.096 E4.26343
G1 X126.187 Y92.035 E4.28137
G1 X137.972 Y103.82 E4.78115
G1 X138.005 Y104.388 E4.79819
G1 X125.606 Y91.989 E5.32398
G1 X125.061 Y91.977 E5.34035
G1 X138.02 Y104.936 E5.88989
G1 X138.017 Y105.468 E5.90584
M73 P1 R56
M73 Q1 S56
G1 X124.54 Y91.991 E6.47735
G1 X124.024 Y92.008 E6.49284
G1 X137.992 Y105.976 E7.08516
G1 X137.945 Y106.463 E7.09983
G1 X123.537 Y92.055 E7.71081
G1 X123.066 Y92.119 E7.72504
G1 X137.881 Y106.934 E8.35327
G1 X137.806 Y107.392 E8.36721
G1 X122.608 Y92.194 E9.01168
G1 X122.164 Y92.285 E9.02526
G1 X137.715 Y107.836 E9.68472
G1 X137.604 Y108.259 E9.69783
G1 X121.736 Y92.39 E10.37076
G1 X121.316 Y92.504 E10.38381
G1 X137.488 Y108.677 E11.06964
G1 X137.369 Y109.092 E11.08258
G1 X120.91 Y92.632 E11.78055
G1 X120.514 Y92.771 E11.79311
G1 X137.229 Y109.486 E12.50193
G1 X137.081 Y109.871 E12.51431
G1 X120.126 Y92.916 E13.23331
G1 X119.753 Y93.078 E13.24548
G1 X136.924 Y110.249 E13.97364
G1 X136.754 Y110.613 E13.98568
G1 X119.388 Y93.247 E14.72211
G1 X119.037 Y93.429 E14.73398
G1 X136.579 Y110.972 E15.47789
G1 X136.391 Y111.318 E15.4897
G1 X118.685 Y93.612 E16.24053
G1 X118.342 Y93.803 E16.2523
G1 X136.194 Y111.655 E17.00932
G1 X135.986 Y111.981 E17.02092
G1 X118.011 Y94.006 E17.78317
G1 X117.69 Y94.219 E17.79473
G1 X135.779 Y112.308 E18.56179
G1 X135.562 Y112.625 E18.57331
G1 X117.374 Y94.436 E19.3446
G1 X117.075 Y94.671 E19.356
G1 X135.335 Y112.932 E20.13033
G1 X135.097 Y113.228 E20.14173
G1 X116.777 Y94.908 E20.91862
G1 X116.48 Y95.145 E20.93002
G1 X134.856 Y113.521 E21.70929
G1 X134.602 Y113.801 E21.72063
G1 X116.203 Y95.402 E22.50084
G1 X115.929 Y95.663 E22.51216
G1 X134.344 Y114.078 E23.29307
G1 X134.07 Y114.338 E23.3044
M73 P1 R55
G1 X115.655 Y95.923 E24.0853
G1 X115.398 Y96.199 E24.09663
G1 X133.796 Y114.598 E24.87684
G1 X133.521 Y114.856 E24.88817
G1 X115.144 Y96.479 E25.66748
G1 X114.903 Y96.772 E25.67885
G1 X133.228 Y115.097 E26.45598
G1 X132.931 Y115.335 E26.46737
M73 P2 R55
M73 Q2 S56
G1 X114.665 Y97.069 E27.24196
G1 X114.438 Y97.375 E27.25341
G1 X132.625 Y115.562 E28.02462
G1 X132.31 Y115.781 E28.03611
G1 X114.219 Y97.69 E28.80331
G1 X114.006 Y98.011 E28.81487
G1 X131.989 Y115.994 E29.57746
G1 X131.653 Y116.192 E29.58916
M73 Q2 S55
G1 X113.804 Y98.343 E30.34605
G1 X113.606 Y98.679 E30.35774
G1 X131.312 Y116.385 E31.10857
G1 X130.971 Y116.578 E31.12032
G1 X113.423 Y99.03 E31.86444
G1 X113.246 Y99.388 E31.87639
G1 X130.613 Y116.754 E32.61283
G1 X130.249 Y116.924 E32.62487
G1 X113.084 Y99.76 E33.35276
G1 X112.923 Y100.132 E33.36493
G1 X129.871 Y117.081 E34.08366
G1 X129.486 Y117.229 E34.09605
G1 X112.771 Y100.514 E34.80488
G1 X112.631 Y100.908 E34.81742
G1 X129.092 Y117.369 E35.51545
G1 X128.677 Y117.488 E35.52839
G1 X112.506 Y101.317 E36.21413
G1 X112.389 Y101.734 E36.22711
G1 X128.259 Y117.604 E36.90011
G1 X127.836 Y117.715 E36.91323
G1 X112.285 Y102.165 E37.57266
G1 X112.201 Y102.615 E37.58639
G1 X127.392 Y117.806 E38.23057
G1 X126.934 Y117.881 E38.24451
G1 X112.125 Y103.072 E38.87249
