; generated by PrusaSlicer 2.5.0+win64 on 2023-01-05 at 22:35:16 UTC

; 

; external perimeters extrusion width = 0.45mm
; perimeters extrusion width = 0.45mm
; infill extrusion width = 0.45mm
; solid infill extrusion width = 0.45mm
; top infill extrusion width = 0.40mm
; first layer extrusion width = 0.42mm

M73 P0 R56
M73 Q0 S56
M201 X1000 Y1000 Z200 E5000 ; sets maximum accelerations, mm/sec^2
M203 X200 Y200 Z12 E120 ; sets maximum feedrates, mm / sec
M204 P1250 R1250 T1250 ; sets acceleration (P, T) and retract acceleration (R), mm/sec^2
M205 X8.00 Y8.00 Z0.40 E4.50 ; sets the jerk limits, mm/sec
M205 S0 T0 ; sets the minimum extruding and travel feed rate, mm/sec
M107
;TYPE:Custom
M862.3 P "MK3S" ; printer model check
M862.1 P0.4 ; nozzle diameter check
M115 U3.9.3 ; tell printer latest fw version
G90 ; use absolute coordinates
M83 ; extruder relative mode
M104 S215 ; set extruder temp
M140 S60 ; set bed temp
M190 S60 ; wait for bed temp
M109 S215 ; wait for extruder temp
G28 W ; home all without mesh bed level
G80 ; mesh bed leveling
G1 Y-3.0 F1000.0 ; go outside print area
G92 E0.0
G1 X60.0 E9.0 F1000.0 ; intro line
G1 X100.0 E12.5 F1000.0 ; intro line
G92 E0.0
M221 S95

; Don't change E values below. Excessive value can damage the printer.
M907 E430 ; set extruder motor current
G21 ; set units to millimeters
G90 ; use absolute coordinates
M83 ; use relative distances for extrusion
M900 K30 ; Filament gcode
M107
;LAYER_CHANGE
;Z:0.2
;HEIGHT:0.2
;BEFORE_LAYER_CHANGE
G92 E0.0
;0.2


G1 E-1.5 F2400
G1 Z.2 F720
;AFTER_LAYER_CHANGE
;0.2
G1 X112.105 Y94.148 F10800
G1 E1.501 F2400
M204 S800
;TYPE:Skirt/Brim
;WIDTH:0.42
G1 F1200
G1 X113.275 Y92.893 E.05139
G1 X114.412 Y91.887 E.04547
G1 X115.8 Y90.878 E.05139
G1 X117.109 Y90.107 E.04546
G1 X118.709 Y89.364 E.05282
G1 X120.377 Y88.792 E.05282
G1 X122.05 Y88.406 E.05139
G1 X123.555 Y88.208 E.04547
G1 X125.27 Y88.148 E.05139
G1 X127.03 Y88.269 E.05282
G1 X128.528 Y88.519 E.04546
G1 X130.185 Y88.963 E.05139
G1 X131.608 Y89.495 E.04546
G1 X133.15 Y90.247 E.05139
G1 X134.445 Y91.041 E.04546
G1 X135.852 Y92.105 E.05283
G1 X137.107 Y93.275 E.05139
G1 X138.113 Y94.412 E.04547
G1 X139.122 Y95.8 E.05138
G1 X139.893 Y97.109 E.04547
G1 X140.636 Y98.709 E.05282
G1 X141.208 Y100.377 E.05282
G1 X141.594 Y102.05 E.05139
G1 X141.792 Y103.555 E.04546
G1 X141.852 Y105.27 E.05139
G1 X141.759 Y106.786 E.04546
G1 X141.491 Y108.481 E.05139
G1 X141.111 Y109.951 E.04546
G1 X140.505 Y111.608 E.05282
G1 X139.729 Y113.192 E.05283
G1 X138.82 Y114.647 E.05139
G1 X137.896 Y115.852 E.04546
G1 X136.725 Y117.107 E.05139
G1 X135.588 Y118.113 E.04547
G1 X134.159 Y119.148 E.05282
G1 X132.673 Y120.006 E.05139
G1 X131.291 Y120.636 E.04546
G1 X129.669 Y121.195 E.05139
G1 X127.95 Y121.594 E.05282
G1 X126.445 Y121.792 E.04546
G1 X124.73 Y121.852 E.05139
G1 X123.214 Y121.759 E.04546
G1 X121.519 Y121.491 E.05139
G1 X119.815 Y121.037 E.05283
G1 X118.392 Y120.505 E.04546
G1 X116.808 Y119.729 E.05282
G1 X115.353 Y118.82 E.05139
G1 X114.148 Y117.895 E.04547
G1 X112.893 Y116.725 E.05139
G1 X111.887 Y115.588 E.04546
G1 X110.878 Y114.2 E.05139
G1 X110.107 Y112.891 E.04547
G1 X109.364 Y111.291 E.05282
G1 X108.805 Y109.669 E.05139
G1 X108.406 Y107.95 E.05282
G1 X108.208 Y106.445 E.04546
G1 X108.148 Y104.73 E.05139
G1 X108.241 Y103.214 E.04546
G1 X108.519 Y101.472 E.05283
G1 X108.963 Y99.815 E.05139
G1 X109.495 Y98.392 E.04547
G1 X110.271 Y96.808 E.05282
G1 X111.18 Y95.353 E.05139
G1 X112.068 Y94.196 E.04367
M204 S1000
G1 X112.367 Y94.425 F10800
M204 S800
G1 F1200
G1 X113.539 Y93.162 E.0516
G1 X114.647 Y92.182 E.04428
G1 X116.009 Y91.193 E.0504
G1 X117.283 Y90.442 E.04428
G1 X118.847 Y89.715 E.05164
G1 X120.478 Y89.156 E.05164
G1 X122.118 Y88.777 E.0504
G1 X123.585 Y88.584 E.04428
G1 X125.267 Y88.525 E.0504
G1 X126.987 Y88.643 E.05164
G1 X128.446 Y88.887 E.04428
G1 X130.072 Y89.323 E.0504
G1 X131.457 Y89.841 E.04428
G1 X132.97 Y90.579 E.0504
G1 X134.231 Y91.352 E.04428
G1 X135.575 Y92.365 E.0504
G1 X136.838 Y93.539 E.05164
G1 X137.818 Y94.647 E.04428
G1 X138.807 Y96.009 E.0504
G1 X139.558 Y97.283 E.04428
G1 X140.285 Y98.847 E.05164
G1 X140.844 Y100.478 E.05164
G1 X141.223 Y102.118 E.0504
G1 X141.416 Y103.585 E.04428
G1 X141.475 Y105.267 E.0504
G1 X141.357 Y106.987 E.05164
G1 X141.113 Y108.446 E.04428
G1 X140.677 Y110.072 E.0504
G1 X140.159 Y111.457 E.04428
G1 X139.421 Y112.97 E.0504
G1 X138.509 Y114.434 E.05164
G1 X137.609 Y115.607 E.04428
G1 X136.461 Y116.838 E.0504
G1 X135.353 Y117.818 E.04428
G1 X133.957 Y118.83 E.05164
G1 X132.499 Y119.672 E.0504
G1 X131.153 Y120.285 E.04428
G1 X129.562 Y120.833 E.0504
G1 X127.882 Y121.223 E.05164
G1 X126.415 Y121.416 E.04428
G1 X124.733 Y121.475 E.0504
G1 X123.257 Y121.385 E.04428
G1 X121.554 Y121.113 E.05164
G1 X119.928 Y120.677 E.0504
G1 X118.543 Y120.159 E.04428
G1 X117.03 Y119.421 E.0504
G1 X115.566 Y118.509 E.05164
G1 X114.393 Y117.609 E.04428
G1 X113.162 Y116.461 E.0504
G1 X112.182 Y115.353 E.04428
G1 X111.17 Y113.957 E.05164
G1 X110.328 Y112.499 E.0504
G1 X109.715 Y111.153 E.04428
G1 X109.156 Y109.522 E.05164
G1 X108.777 Y107.882 E.0504
G1 X108.584 Y106.415 E.04428
G1 X108.525 Y104.733 E.0504
G1 X108.615 Y103.257 E.04428
G1 X108.887 Y101.554 E.05164
G1 X109.323 Y99.928 E.0504
G1 X109.841 Y98.543 E.04428
G1 X110.599 Y96.994 E.05164
G1 X111.491 Y95.566 E.0504
G1 X112.33 Y94.472 E.04128
M204 S1000
; printing object Shape-Cylinder id:0 copy 0
G1 E-.075 F2400
;WIPE_START
G1 F8640
G1 X113.539 Y93.162 E-.47053
G1 X114.647 Y92.182 E-.39026
G1 X116.009 Y91.193 E-.44418
G1 X116.168 Y91.099 E-.04877
;WIPE_END
G1 E-.07125 F2400
G1 X119.191 Y93.03 F10800
G1 E1.501 F2400
M204 S800
;TYPE:Perimeter
;WIDTH:0.419999
G1 F1200
G1 X120.013 Y92.657 E.02703
G1 X120.666 Y92.413 E.02087
G1 X121.331 Y92.203 E.02087
G1 X122.005 Y92.028 E.02087
G1 X122.688 Y91.89 E.02087
G1 X123.378 Y91.787 E.02087
G1 X124.066 Y91.72 E.02072
G1 X125.237 Y91.69 E.03507
G1 X125.93 Y91.72 E.02075
G1 X126.622 Y91.787 E.02084
G1 X127.313 Y91.89 E.0209
G1 X127.99 Y92.028 E.02069
G1 X129.119 Y92.341 E.03507
G1 X129.771 Y92.571 E.02072
G1 X130.415 Y92.838 E.02087
G1 X131.039 Y93.136 E.02072
G1 X132.06 Y93.713 E.0351
G1 X132.636 Y94.095 E.02069
G1 X133.192 Y94.507 E.02072
G1 X134.083 Y95.267 E.03507
G1 X134.576 Y95.752 E.02072
G1 X135.047 Y96.266 E.02087
G1 X135.491 Y96.804 E.02087
G1 X135.902 Y97.36 E.02072
G1 X136.532 Y98.349 E.0351
G1 X136.862 Y98.957 E.02072
G1 X137.162 Y99.585 E.02084
G1 X137.428 Y100.229 E.02087
G1 X137.66 Y100.882 E.02072
G1 X137.867 Y101.629 E.02323
G1 X138.051 Y102.398 E.02367
G1 X138.17 Y103.084 E.02087
G1 X138.242 Y103.673 E.01775
G1 X138.29 Y104.462 E.02367
G1 X138.31 Y105.237 E.02323
G1 X138.28 Y105.929 E.02072
G1 X138.213 Y106.623 E.0209
G1 X138.11 Y107.312 E.02084
G1 X137.972 Y107.99 E.02072
G1 X137.659 Y109.119 E.03507
G1 X137.429 Y109.771 E.02072
G1 X137.162 Y110.415 E.02087
G1 X136.862 Y111.044 E.02087
G1 X136.531 Y111.652 E.02072
G1 X135.902 Y112.64 E.03507
G1 X135.491 Y113.196 E.02072
G1 X135.047 Y113.734 E.02087
G1 X134.58 Y114.244 E.02072
G1 X133.73 Y115.05 E.03507
G1 X133.196 Y115.491 E.02072
G1 X132.636 Y115.905 E.02087
G1 X132.059 Y116.287 E.02072
G1 X131.039 Y116.864 E.03507
G1 X130.415 Y117.162 E.02072
G1 X129.771 Y117.428 E.02087
G1 X129.118 Y117.66 E.02073
G1 X127.99 Y117.972 E.03507
G1 X127.312 Y118.11 E.02072
G1 X126.622 Y118.213 E.02087
G1 X125.934 Y118.28 E.02072
G1 X124.763 Y118.31 E.03507
G1 X124.071 Y118.28 E.02072
G1 X123.378 Y118.213 E.02087
G1 X122.693 Y118.111 E.02073
G1 X121.549 Y117.857 E.0351
G1 X120.886 Y117.661 E.02069
G1 X120.234 Y117.43 E.02072
G1 X119.159 Y116.963 E.0351
G1 X118.545 Y116.643 E.02072
G1 X117.945 Y116.29 E.02084
G1 X117.364 Y115.905 E.02087
G1 X116.808 Y115.493 E.02073
G1 X115.917 Y114.733 E.03507
G1 X115.424 Y114.248 E.02072
G1 X114.956 Y113.738 E.02072
G1 X114.227 Y112.821 E.03507
G1 X113.838 Y112.255 E.02058
G1 X113.243 Y111.246 E.03507
G1 X112.935 Y110.626 E.02072
G1 X112.657 Y109.987 E.02087
G1 X112.414 Y109.339 E.02073
G1 X112.082 Y108.216 E.03507
G1 X111.932 Y107.54 E.02072
G1 X111.817 Y106.853 E.02087
G1 X111.738 Y106.16 E.02087
G1 X111.695 Y105.465 E.02087
G1 X111.689 Y104.768 E.02087
G1 X111.72 Y104.07 E.0209
G1 X111.786 Y103.382 E.02069
G1 X111.979 Y102.227 E.03507
G1 X112.141 Y101.553 E.02075
G1 X112.339 Y100.886 E.02084
G1 X112.57 Y100.234 E.02072
G1 X113.037 Y99.16 E.03507
G1 X113.356 Y98.546 E.02072
G1 X113.711 Y97.945 E.0209
G1 X114.095 Y97.364 E.02084
G1 X114.509 Y96.804 E.02087
G1 X114.953 Y96.266 E.02087
G1 X115.42 Y95.756 E.02072
G1 X116.266 Y94.953 E.03492
G1 X117.179 Y94.227 E.03492
G1 X117.749 Y93.835 E.02072
G1 X118.34 Y93.473 E.02073
G1 X119.138 Y93.058 E.02695
M204 S1000
G1 X119.017 Y92.696 F10800
M204 S800
;TYPE:External perimeter
G1 F1200
G1 X119.872 Y92.307 E.02812
G1 X120.543 Y92.056 E.02146
G1 X121.227 Y91.84 E.02146
G1 X121.92 Y91.661 E.02146
G1 X122.623 Y91.518 E.02146
G1 X123.332 Y91.412 E.02146
G1 X124.043 Y91.344 E.02141
G1 X125.241 Y91.312 E.03586
G1 X125.956 Y91.344 E.02144
G1 X126.668 Y91.412 E.02143
G1 X127.378 Y91.518 E.02149
G1 X128.078 Y91.661 E.02138
G1 X129.232 Y91.981 E.03586
G1 X129.906 Y92.219 E.02141
G1 X130.568 Y92.494 E.02146
G1 X131.214 Y92.801 E.02141
G1 X132.257 Y93.392 E.03589
G1 X132.852 Y93.786 E.02138
G1 X133.427 Y94.211 E.02141
G1 X134.338 Y94.989 E.03586
G1 X134.848 Y95.49 E.02141
G1 X135.332 Y96.019 E.02146
G1 X135.788 Y96.572 E.02146
G1 X136.213 Y97.147 E.02142
G1 X136.857 Y98.157 E.03589
G1 X137.198 Y98.786 E.02141
G1 X137.506 Y99.432 E.02143
G1 X137.781 Y100.094 E.02146
G1 X138.019 Y100.768 E.02141
G1 X138.23 Y101.528 E.02362
G1 X138.421 Y102.322 E.02446
G1 X138.543 Y103.029 E.02146
G1 X138.617 Y103.637 E.01834
G1 X138.667 Y104.452 E.02446
G1 X138.688 Y105.241 E.02362
G1 X138.657 Y105.955 E.02141
G1 X138.588 Y106.669 E.02149
G1 X138.482 Y107.377 E.02143
G1 X138.339 Y108.078 E.02141
G1 X138.019 Y109.232 E.03586
G1 X137.781 Y109.906 E.02141
G1 X137.506 Y110.568 E.02146
G1 X137.198 Y111.215 E.02146
G1 X136.857 Y111.844 E.02141
G1 X136.213 Y112.854 E.03586
G1 X135.788 Y113.428 E.02141
G1 X135.332 Y113.981 E.02146
G1 X134.849 Y114.509 E.02141
G1 X133.98 Y115.333 E.03586
G1 X133.428 Y115.788 E.02141
G1 X132.852 Y116.214 E.02146
G1 X132.256 Y116.609 E.02141
G1 X131.214 Y117.199 E.03586
G1 X130.568 Y117.506 E.02141
G1 X129.906 Y117.781 E.02146
G1 X129.232 Y118.019 E.02142
G1 X128.078 Y118.339 E.03586
G1 X127.377 Y118.482 E.02141
G1 X126.668 Y118.588 E.02146
G1 X125.957 Y118.656 E.02141
G1 X124.759 Y118.688 E.03586
G1 X124.045 Y118.657 E.02141
G1 X123.332 Y118.588 E.02146
G1 X122.624 Y118.482 E.02142
G1 X121.454 Y118.223 E.03588
G1 X120.77 Y118.02 E.02138
G1 X120.095 Y117.781 E.02141
G1 X118.996 Y117.303 E.03589
G1 X118.362 Y116.973 E.02141
G1 X117.745 Y116.61 E.02143
G1 X117.148 Y116.214 E.02146
G1 X116.573 Y115.789 E.02142
G1 X115.662 Y115.011 E.03586
G1 X115.152 Y114.51 E.02141
G1 X114.669 Y113.983 E.02141
G1 X113.924 Y113.045 E.03585
G1 X113.52 Y112.457 E.02137
G1 X112.912 Y111.426 E.03586
G1 X112.593 Y110.786 E.02141
G1 X112.307 Y110.128 E.02146
G1 X112.056 Y109.458 E.02142
G1 X111.716 Y108.31 E.03586
G1 X111.562 Y107.612 E.02141
G1 X111.443 Y106.905 E.02146
G1 X111.362 Y106.193 E.02146
G1 X111.318 Y105.478 E.02146
G1 X111.312 Y104.761 E.02146
G1 X111.344 Y104.044 E.02149
G1 X111.412 Y103.333 E.02138
G1 X111.61 Y102.152 E.03586
G1 X111.777 Y101.456 E.02144
G1 X111.98 Y100.77 E.02143
G1 X112.219 Y100.095 E.02141
G1 X112.696 Y98.997 E.03586
G1 X113.027 Y98.363 E.02141
G1 X113.391 Y97.745 E.02149
G1 X113.786 Y97.148 E.02143
G1 X114.212 Y96.572 E.02146
G1 X114.668 Y96.019 E.02146
G1 X115.151 Y95.491 E.02141
G1 X116.019 Y94.668 E.03581
G1 X116.955 Y93.924 E.03581
G1 X117.544 Y93.519 E.02141
G1 X118.154 Y93.145 E.02142
G1 X118.964 Y92.723 E.02734
M204 S1000
G1 X119.349 Y92.919 F10800
G1 E-.075 F2400
;WIPE_START
G1 F8640
G1 X119.872 Y92.307 E-.26359
G1 X120.543 Y92.056 E-.18912
G1 X121.227 Y91.84 E-.18915
G1 X121.92 Y91.661 E-.18914
G1 X122.623 Y91.518 E-.18913
G1 X123.332 Y91.412 E-.18916
G1 X123.877 Y91.36 E-.14447
;WIPE_END
G1 E-.07125 F2400
G1 X132.726 Y94.302 F10800
G1 E1.501 F2400
M204 S800
;TYPE:Solid infill
;WIDTH:0.420531
G1 F1200
G1 X134.377 Y95.954 E.07002
G1 X134.834 Y96.452 E.02026
G1 X135.268 Y96.978 E.02045
G1 X135.669 Y97.52 E.02024
G1 X136.123 Y98.233 E.02535
G1 X131.757 Y93.867 E.18517
G1 X130.909 Y93.387 E.02921
G1 X130.592 Y93.236 E.01054
G1 X136.764 Y99.408 E.26175
G1 X137.171 Y100.349 E.03074
G1 X129.651 Y92.829 E.31891
G1 X128.846 Y92.558 E.02545
G1 X137.442 Y101.154 E.3645
G1 X137.647 Y101.893 E.02299
G1 X128.107 Y92.353 E.40453
G1 X127.42 Y92.2 E.02112
G1 X137.8 Y102.58 E.44018
G1 X137.904 Y103.218 E.01938
G1 X126.782 Y92.096 E.47163
G1 X126.187 Y92.035 E.01795
G1 X137.972 Y103.82 E.49977
G1 X138.005 Y104.388 E.01704
G1 X125.606 Y91.989 E.52579
G1 X125.061 Y91.977 E.01637
M73 P0 R55
G1 X138.02 Y104.936 E.54954
G1 X138.017 Y105.468 E.01594
M73 P1 R55
M73 Q1 S56
G1 X124.54 Y91.991 E.57151
G1 X124.024 Y92.008 E.01549
G1 X137.992 Y105.976 E.59232
G1 X137.945 Y106.463 E.01467
G1 X123.537 Y92.055 E.61098
G1 X123.066 Y92.119 E.01423
G1 X137.881 Y106.934 E.62823
G1 X137.806 Y107.392 E.01393
G1 X122.608 Y92.194 E.64447
G1 X122.164 Y92.285 E.01358
G1 X137.715 Y107.836 E.65946
G1 X137.604 Y108.259 E.01312
G1 X121.736 Y92.39 E.67293
G1 X121.316 Y92.504 E.01305
G1 X137.488 Y108.677 E.68583
G1 X137.369 Y109.092 E.01294
M73 Q1 S55
G1 X120.91 Y92.632 E.69798
G1 X120.514 Y92.771 E.01256
G1 X137.229 Y109.486 E.70881
G1 X137.081 Y109.871 E.01239
G1 X120.126 Y92.916 E.71899
G1 X119.753 Y93.078 E.01217
G1 X136.924 Y110.249 E.72816
G1 X136.754 Y110.613 E.01204
G1 X119.388 Y93.247 E.73643
G1 X119.037 Y93.429 E.01187
G1 X136.579 Y110.972 E.74391
G1 X136.391 Y111.318 E.01181
G1 X118.685 Y93.612 E.75083
G1 X118.342 Y93.803 E.01177
G1 X136.194 Y111.655 E.75702
G1 X135.986 Y111.981 E.0116
G1 X118.011 Y94.006 E.76225
G1 X117.69 Y94.219 E.01155
G1 X135.779 Y112.308 E.76706
G1 X135.562 Y112.625 E.01152
G1 X117.374 Y94.436 E.77129
G1 X117.075 Y94.671 E.0114
G1 X135.335 Y112.932 E.77433
G1 X135.097 Y113.228 E.01139
G1 X116.777 Y94.908 E.77689
G1 X116.48 Y95.145 E.0114
G1 X134.856 Y113.521 E.77927
G1 X134.602 Y113.801 E.01134
G1 X116.203 Y95.402 E.78021
G1 X115.929 Y95.663 E.01133
G1 X134.344 Y114.078 E.78091
G1 X134.07 Y114.338 E.01133
G1 X115.655 Y95.923 E.78091
G1 X115.398 Y96.199 E.01133
G1 X133.796 Y114.598 E.78021
G1 X133.521 Y114.856 E.01133
G1 X115.144 Y96.479 E.77931
G1 X114.903 Y96.772 E.01138
G1 X133.228 Y115.097 E.77713
G1 X132.931 Y115.335 E.01139
M73 P2 R55
M73 Q2 S55
G1 X114.665 Y97.069 E.77459
G1 X114.438 Y97.375 E.01145
G1 X132.625 Y115.562 E.77121
G1 X132.31 Y115.781 E.0115
G1 X114.219 Y97.69 E.7672
G1 X114.006 Y98.011 E.01155
G1 X131.989 Y115.994 E.76259
G1 X131.653 Y116.192 E.0117
G1 X113.804 Y98.343 E.75689
G1 X113.606 Y98.679 E.0117
G1 X131.312 Y116.385 E.75082
G1 X130.971 Y116.578 E.01175
G1 X113.423 Y99.03 E.74412
G1 X113.246 Y99.388 E.01195
G1 X130.613 Y116.754 E.73644
G1 X130.249 Y116.924 E.01204
G1 X113.084 Y99.76 E.72788
G1 X112.923 Y100.132 E.01217
G1 X129.871 Y117.081 E.71873
G1 X129.486 Y117.229 E.01239
G1 X112.771 Y100.514 E.70883
G1 X112.631 Y100.908 E.01254
G1 X129.092 Y117.369 E.69803
G1 X128.677 Y117.488 E.01294
G1 X112.506 Y101.317 E.68575
G1 X112.389 Y101.734 E.01298
G1 X128.259 Y117.604 E.673
G1 X127.836 Y117.715 E.01312
G1 X112.285 Y102.165 E.65944
G1 X112.201 Y102.615 E.01373
G1 X127.392 Y117.806 E.64418
G1 X126.934 Y117.881 E.01393
G1 X112.125 Y103.072 E.62798
G1 X112.055 Y103.537 E.01409
G1 X126.463 Y117.945 E.61098
G1 X125.976 Y117.992 E.01467
G1 X112.008 Y104.024 E.59231
G1 X111.983 Y104.532 E.01526
G1 X125.46 Y118.009 E.57151
G1 X124.939 Y118.023 E.01561
G1 X111.975 Y105.058 E.54978
G1 X111.987 Y105.605 E.0164
M73 P2 R54
G1 X124.394 Y118.011 E.5261
G1 X123.82 Y117.972 E.01723
G1 X112.024 Y106.176 E.50022
G1 X112.093 Y106.779 E.01819
G1 X123.218 Y117.904 E.47177
G1 X122.576 Y117.796 E.01953
G1 X112.198 Y107.418 E.44008
G1 X112.345 Y108.099 E.0209
G1 X121.89 Y117.643 E.40473
G1 X121.159 Y117.447 E.02267
G1 X112.565 Y108.853 E.36444
