; generated by PrusaSlicer 2.5.0+win64 on 2023-02-16 at 15:39:16 UTC

; 

; external perimeters extrusion width = 0.45mm
; perimeters extrusion width = 0.45mm
; infill extrusion width = 0.45mm
; solid infill extrusion width = 0.45mm
; top infill extrusion width = 0.40mm
; first layer extrusion width = 0.42mm

M73 P0 R1
M73 Q0 S1
M201 X1000 Y1000 Z200 E5000 ; sets maximum accelerations, mm/sec^2
M203 X200 Y200 Z12 E120 ; sets maximum feedrates, mm / sec
M204 P1250 R1250 T1250 ; sets acceleration (P, T) and retract acceleration (R), mm/sec^2
M205 X8.00 Y8.00 Z0.40 E4.50 ; sets the jerk limits, mm/sec
M205 S0 T0 ; sets the minimum extruding and travel feed rate, mm/sec
M107
;TYPE:Custom
M862.3 P "MK3S" ; printer model check
M862.1 P0.4 ; nozzle diameter check
M115 U3.9.3 ; tell printer latest fw version
G90 ; use absolute coordinates
M83 ; extruder relative mode
M104 S215 ; set extruder temp
M140 S60 ; set bed temp
M190 S60 ; wait for bed temp
M109 S215 ; wait for extruder temp
G28 W ; home all without mesh bed level
G80 ; mesh bed leveling
G1 Y-3.0 F1000.0 ; go outside print area
G92 E0.0
G1 X60.0 E9.0 F1000.0 ; intro line
G1 X100.0 E12.5 F1000.0 ; intro line
G92 E0.0
M221 S95

; Don't change E values below. Excessive value can damage the printer.
M907 E430 ; set extruder motor current
G21 ; set units to millimeters
G90 ; use absolute coordinates
M83 ; use relative distances for extrusion
M900 K30 ; Filament gcode
M107
;LAYER_CHANGE
;Z:0.2
;HEIGHT:0.2
;BEFORE_LAYER_CHANGE
G92 E0.0
;0.2


M73 P6 R0
M73 Q6 S0
G1 E-1.5 F2400
M73 P9 R0
M73 Q9 S0
G1 Z.2 F720
;AFTER_LAYER_CHANGE
;0.2
; printing object SewingLineDecorative2.stl id:0 copy 0
M73 P10 R0
M73 Q10 S0
G1 X132.659 Y100.752 F4800
G1 E1.501 F2400
M204 S400
;TYPE:Perimeter
;WIDTH:0.42
M73 P12 R0
M73 Q12 S0
G1 F550
G1 X132.783 Y100.801 E.00398
G1 X133.313 Y101.092 E.01812
G1 X133.812 Y101.456 E.01849
G1 X134.005 Y101.63 E.00779
G1 X134.289 Y101.984 E.0136
G1 X134.544 Y102.387 E.01426
G1 X134.756 Y102.817 E.01436
G1 X134.927 Y103.27 E.01451
G1 X135.057 Y103.743 E.01468
M73 P13 R0
M73 Q13 S0
G1 X135.146 Y104.23 E.01481
G1 X135.194 Y104.719 E.01473
G1 X135.192 Y105.477 E.0227
G1 X135.145 Y105.961 E.01457
G1 X134.995 Y106.786 E.02509
G1 X134.838 Y107.295 E.01595
G1 X134.633 Y107.769 E.01548
G1 X134.384 Y108.206 E.01503
G1 X134.096 Y108.603 E.01469
G1 X133.773 Y108.961 E.01444
M73 P14 R0
M73 Q14 S0
G1 X133.418 Y109.277 E.01424
G1 X133.035 Y109.55 E.01409
G1 X132.628 Y109.78 E.01398
G1 X132.202 Y109.963 E.0139
G1 X131.76 Y110.099 E.01384
G1 X131.306 Y110.186 E.01383
G1 X130.845 Y110.222 E.01385
G1 X130.381 Y110.207 E.01393
G1 X129.915 Y110.139 E.01409
G1 X129.452 Y110.015 E.01435
G1 X128.995 Y109.834 E.01473
G1 X128.546 Y109.593 E.01526
M73 P15 R0
M73 Q15 S0
G1 X128.108 Y109.289 E.01597
G1 X127.684 Y108.917 E.01689
G1 X127.073 Y108.243 E.02724
G1 X126.64 Y107.692 E.02097
G1 X126.221 Y107.11 E.02147
G1 X123.403 Y103.013 E.1489
G1 X122.69 Y102.057 E.0357
M73 P16 R0
M73 Q16 S0
G1 X122.296 Y101.61 E.01785
G1 X121.876 Y101.211 E.01736
G1 X121.636 Y101.017 E.00924
M73 P17 R0
M73 Q17 S0
G1 X121.167 Y100.702 E.01689
G1 X120.893 Y100.554 E.00934
G1 X120.369 Y100.342 E.01691
G1 X120.061 Y100.258 E.00959
G1 X119.489 Y100.175 E.0173
G1 X119.157 Y100.169 E.00995
G1 X118.554 Y100.236 E.01816
G1 X118.215 Y100.316 E.01043
G1 X117.619 Y100.529 E.01894
G1 X117.322 Y100.682 E.01
G1 X117.044 Y100.86 E.00988
G1 X116.589 Y101.244 E.01786
G1 X116.365 Y101.487 E.00987
M73 P18 R0
M73 Q18 S0
G1 X116.022 Y101.958 E.01746
G1 X115.862 Y102.234 E.00956
G1 X115.617 Y102.766 E.01754
G1 X115.432 Y103.329 E.01772
G1 X115.307 Y103.903 E.01759
G1 X115.239 Y104.48 E.01741
G1 X115.223 Y105.052 E.01714
G1 X115.26 Y105.637 E.01755
G1 X115.381 Y106.232 E.01817
G1 X115.527 Y106.669 E.01382
G1 X115.77 Y107.197 E.0174
M73 P19 R0
M73 Q19 S0
G1 X115.986 Y107.574 E.01301
G1 X116.506 Y108.371 E.02848
G1 X116.799 Y108.745 E.01423
G1 X117.196 Y109.141 E.01679
G1 X116.889 Y108.982 E.01036
G1 X116.517 Y108.73 E.01344
G1 X116.182 Y108.444 E.0132
G1 X115.882 Y108.125 E.01311
G1 X115.618 Y107.774 E.01315
G1 X115.389 Y107.395 E.01327
G1 X115.195 Y106.99 E.01345
M73 P20 R0
M73 Q20 S0
G1 X115.039 Y106.56 E.01368
G1 X114.92 Y106.111 E.01392
G1 X114.84 Y105.645 E.01416
G1 X114.798 Y105.166 E.0144
G1 X114.796 Y104.677 E.01463
G1 X114.834 Y104.183 E.01483
G1 X114.913 Y103.688 E.01502
G1 X115.032 Y103.195 E.01518
G1 X115.192 Y102.709 E.01534
G1 X115.396 Y102.225 E.01572
G1 X115.549 Y101.918 E.01027
G1 X115.721 Y101.636 E.00987
M73 P21 R0
M73 Q21 S0
G1 X115.916 Y101.372 E.00983
G1 X116.131 Y101.125 E.00982
G1 X116.367 Y100.897 E.00983
G1 X116.62 Y100.687 E.00986
G1 X116.89 Y100.496 E.00989
G1 X117.175 Y100.326 E.00992
G1 X117.779 Y100.052 E.01988
G1 X118.417 Y99.869 E.01988
G1 X119.072 Y99.782 E.01977
G1 X119.642 Y99.792 E.01707
G1 X120.054 Y99.844 E.01242
G1 X120.366 Y99.915 E.00959
G1 X120.676 Y100.014 E.00973
G1 X120.982 Y100.142 E.00994
M73 P22 R0
M73 Q22 S0
G1 X121.253 Y100.282 E.00914
G1 X121.66 Y100.539 E.0144
G1 X121.906 Y100.724 E.00922
G1 X122.269 Y101.039 E.01438
G1 X122.841 Y101.64 E.02485
G1 X123.364 Y102.298 E.02518
G1 X124.279 Y103.579 E.04714
G1 X126.774 Y107.187 E.13134
G1 X127.159 Y107.699 E.01918
M73 P23 R0
M73 Q23 S0
G1 X127.558 Y108.167 E.01842
G1 X127.874 Y108.499 E.01372
G1 X128.207 Y108.806 E.01355
M73 P24 R0
M73 Q24 S0
G1 X128.556 Y109.08 E.01331
G1 X128.816 Y109.251 E.0093
G1 X129.23 Y109.47 E.01404
G1 X129.748 Y109.636 E.01629
G1 X130.233 Y109.736 E.01482
G1 X130.708 Y109.78 E.01429
G1 X131.17 Y109.768 E.01385
G1 X131.616 Y109.702 E.0135
G1 X132.042 Y109.584 E.01322
G1 X132.443 Y109.418 E.013
G1 X132.816 Y109.207 E.01283
G1 X133.159 Y108.957 E.01272
G1 X133.472 Y108.672 E.01266
M73 P25 R0
M73 Q25 S0
G1 X133.752 Y108.356 E.01264
G1 X134 Y108.013 E.01267
G1 X134.215 Y107.647 E.01272
G1 X134.398 Y107.26 E.01281
G1 X134.548 Y106.856 E.01292
G1 X134.665 Y106.436 E.01304
G1 X134.75 Y106.004 E.01318
G1 X134.8 Y105.562 E.01333
G1 X134.817 Y105.11 E.01354
G1 X134.789 Y104.514 E.01788
G1 X134.718 Y104.037 E.01444
G1 X134.543 Y103.448 E.01839
G1 X134.298 Y102.906 E.01782
M73 P26 R0
M73 Q26 S0
G1 X134.011 Y102.417 E.01697
G1 X133.557 Y101.736 E.0245
G1 X133.358 Y101.462 E.01017
G1 X132.916 Y100.97 E.01978
G1 X132.705 Y100.791 E.00829
M204 S500
G1 E-.075 F2400
;WIPE_START
G1 F3840
G1 X132.783 Y100.801 E-.04657
G1 X133.313 Y101.092 E-.35927
G1 X133.812 Y101.456 E-.3666
G1 X134.005 Y101.63 E-.15447
G1 X134.289 Y101.984 E-.2696
G1 X134.431 Y102.208 E-.15724
;WIPE_END
G1 E-.07125 F2400
G1 X129.21 Y100.061 F4800
G1 E1.501 F2400
M204 S400
;TYPE:External perimeter
M73 P27 R0
M73 Q27 S0
G1 F550
G1 X129.442 Y99.982 E.00734
G1 X130.092 Y99.836 E.01992
G1 X130.399 Y99.812 E.00923
G1 X131.049 Y99.896 E.01964
G1 X131.696 Y100.043 E.01984
G1 X132.335 Y100.22 E.01985
G1 X132.943 Y100.459 E.01957
G1 X133.516 Y100.773 E.01957
G1 X134.049 Y101.163 E.01979
M73 P28 R0
M73 Q28 S0
G1 X134.28 Y101.37 E.00929
G1 X134.597 Y101.765 E.01516
G1 X134.873 Y102.202 E.01548
G1 X135.103 Y102.666 E.01551
G1 X135.286 Y103.154 E.01559
G1 X135.425 Y103.659 E.01569
G1 X135.52 Y104.177 E.01578
G1 X135.571 Y104.701 E.01576
G1 X135.569 Y105.496 E.0238
G1 X135.519 Y106.014 E.01558
M73 Q29 S0
G1 X135.362 Y106.875 E.02623
M73 P29 R0
G1 X135.192 Y107.426 E.01724
G1 X134.971 Y107.938 E.01671
G1 X134.702 Y108.41 E.01627
G1 X134.39 Y108.841 E.01592
G1 X134.039 Y109.229 E.01566
G1 X133.654 Y109.572 E.01546
G1 X133.238 Y109.869 E.0153
G1 X132.796 Y110.118 E.01519
G1 X132.332 Y110.317 E.01511
G1 X131.851 Y110.465 E.01507
M73 P30 R0
M73 Q30 S0
G1 X131.357 Y110.56 E.01506
G1 X130.854 Y110.6 E.0151
G1 X130.347 Y110.583 E.0152
G1 X129.839 Y110.508 E.01538
G1 X129.334 Y110.374 E.01565
G1 X128.836 Y110.176 E.01604
G1 X128.348 Y109.915 E.01656
G1 X127.875 Y109.586 E.01725
G1 X127.419 Y109.186 E.01817
G1 X126.785 Y108.486 E.02829
M73 P31 R0
M73 Q31 S0
G1 X126.339 Y107.919 E.02159
G1 X125.912 Y107.328 E.02183
G1 X123.096 Y103.233 E.14881
G1 X122.397 Y102.295 E.03503
M73 P32 R0
M73 Q32 S0
G1 X122.025 Y101.872 E.01688
G1 X121.627 Y101.495 E.0164
G1 X121.412 Y101.321 E.0083
G1 X120.972 Y101.025 E.01584
G1 X120.732 Y100.896 E.00817
G1 X120.248 Y100.7 E.01563
G1 X119.983 Y100.628 E.00822
G1 X119.458 Y100.552 E.01588
M73 P33 R0
M73 Q33 S0
G1 X119.174 Y100.547 E.00852
G1 X118.618 Y100.608 E.01676
G1 X118.322 Y100.678 E.00911
G1 X117.77 Y100.875 E.01756
G1 X117.511 Y101.009 E.00873
G1 X117.268 Y101.164 E.00861
G1 X116.85 Y101.517 E.0164
G1 X116.657 Y101.726 E.00851
G1 X116.338 Y102.164 E.01622
G1 X116.197 Y102.408 E.00844
G1 X115.969 Y102.904 E.01636
G1 X115.797 Y103.428 E.0165
G1 X115.68 Y103.965 E.01647
M73 P34 R0
M73 Q34 S0
G1 X115.615 Y104.508 E.01635
G1 X115.6 Y105.045 E.01611
G1 X115.635 Y105.587 E.01626
G1 X115.745 Y106.134 E.01669
G1 X115.879 Y106.53 E.01252
G1 X116.105 Y107.025 E.01628
G1 X116.307 Y107.377 E.01217
G1 X116.813 Y108.151 E.02767
G1 X117.084 Y108.496 E.01315
G1 X117.392 Y108.814 E.01327
G1 X117.734 Y109.1 E.01336
M73 P35 R0
M73 Q35 S0
G1 X117.988 Y109.276 E.00924
G1 X118.398 Y109.495 E.01391
G1 X118.848 Y109.651 E.01425
G1 X120.037 Y109.876 E.03624
G1 X120.749 Y109.937 E.02141
G1 X120.182 Y110.085 E.01755
G1 X119.551 Y110.165 E.01905
G1 X119.079 Y110.106 E.01425
G1 X118.768 Y110.043 E.00948
G1 X117.637 Y109.731 E.03515
M73 P36 R0
M73 Q36 S0
G1 X117.144 Y109.54 E.01582
G1 X116.696 Y109.306 E.01514
G1 X116.288 Y109.031 E.01471
G1 X115.921 Y108.717 E.01446
G1 X115.593 Y108.368 E.01434
G1 X115.305 Y107.986 E.01433
G1 X115.056 Y107.574 E.01441
G1 X114.847 Y107.135 E.01455
G1 X114.679 Y106.673 E.01473
G1 X114.551 Y106.191 E.01493
M73 P37 R0
M73 Q37 S0
G1 X114.465 Y105.693 E.01514
G1 X114.421 Y105.183 E.01535
G1 X114.419 Y104.663 E.01555
G1 X114.46 Y104.139 E.01574
G1 X114.543 Y103.614 E.01592
G1 X114.669 Y103.092 E.01609
G1 X114.839 Y102.576 E.01625
G1 X115.053 Y102.068 E.01653
G1 X115.219 Y101.735 E.01112
G1 X115.408 Y101.426 E.01085
G1 X115.621 Y101.136 E.01078
G1 X115.858 Y100.866 E.01075
M73 P38 R0
M73 Q38 S0
G1 X116.115 Y100.616 E.01074
G1 X116.391 Y100.387 E.01074
G1 X116.685 Y100.18 E.01076
G1 X116.994 Y99.995 E.01077
G1 X117.316 Y99.834 E.01078
G1 X117.649 Y99.698 E.01079
G1 X117.991 Y99.586 E.01078
G1 X118.34 Y99.499 E.01077
G1 X118.695 Y99.439 E.01076
G1 X119.051 Y99.406 E.01073
G1 X119.678 Y99.416 E.01875
G1 X120.119 Y99.472 E.01334
G1 X120.465 Y99.551 E.01063
G1 X120.806 Y99.66 E.0107
G1 X121.141 Y99.8 E.01088
M73 P39 R0
M73 Q39 S0
G1 X121.441 Y99.954 E.01009
G1 X121.874 Y100.228 E.01535
G1 X122.143 Y100.43 E.01008
G1 X122.53 Y100.766 E.01532
G1 X123.126 Y101.392 E.02589
G1 X123.665 Y102.071 E.02597
G1 X124.588 Y103.363 E.04751
G1 X127.08 Y106.966 E.1312
G1 X127.453 Y107.463 E.01861
M73 P40 R0
M73 Q40 S0
G1 X127.838 Y107.915 E.01776
G1 X128.139 Y108.23 E.01304
G1 X128.451 Y108.518 E.01273
M73 P41 R0
M73 Q41 S0
G1 X128.777 Y108.774 E.0124
G1 X129.008 Y108.926 E.00829
G1 X129.377 Y109.121 E.01249
G1 X129.844 Y109.271 E.01469
G1 X130.289 Y109.363 E.01359
G1 X130.721 Y109.403 E.01299
G1 X131.138 Y109.392 E.0125
G1 X131.538 Y109.333 E.01211
G1 X131.919 Y109.227 E.01183
G1 X132.277 Y109.078 E.01162
G1 X132.612 Y108.89 E.0115
G1 X132.921 Y108.665 E.01144
G1 X133.203 Y108.407 E.01144
G1 X133.457 Y108.12 E.01149
M73 P42 R0
M73 Q42 S0
G1 X133.683 Y107.807 E.01157
G1 X133.881 Y107.47 E.01168
G1 X134.05 Y107.114 E.01182
G1 X134.189 Y106.739 E.01196
G1 X134.298 Y106.349 E.01212
G1 X134.377 Y105.947 E.01228
G1 X134.424 Y105.534 E.01245
G1 X134.439 Y105.112 E.01263
G1 X134.413 Y104.55 E.01684
G1 X134.349 Y104.119 E.01307
G1 X134.189 Y103.58 E.01683
G1 X133.963 Y103.079 E.01645
G1 X133.692 Y102.617 E.01604
M73 P43 R0
M73 Q43 S0
G1 X133.064 Y101.699 E.0333
G1 X132.653 Y101.241 E.01842
G1 X132.185 Y100.845 E.01835
G1 X131.924 Y100.671 E.0094
G1 X131.65 Y100.519 E.00939
G1 X131.358 Y100.397 E.00947
G1 X131.058 Y100.308 E.00937
G1 X130.757 Y100.245 E.0092
G1 X129.889 Y100.113 E.02631
G1 X129.27 Y100.061 E.01858
M204 S500
G1 X129.452 Y100.017 F4800
M73 P44 R0
M73 Q44 S0
G1 E-.075 F2400
;WIPE_START
G1 F3840
G1 X129.442 Y99.982 E-.11248
G1 X130.092 Y99.836 E-.39497
G1 X130.399 Y99.812 E-.18308
G1 X131.049 Y99.896 E-.38943
G1 X131.499 Y99.998 E-.27379
;WIPE_END
G1 E-.07125 F2400
G1 X131.437 Y100.201 F4800
G1 E1.501 F2400
M204 S400
;TYPE:Gap fill
;WIDTH:0.125222
G1 F550
G1 X131.639 Y100.266 E.00139
;WIDTH:0.180072
G1 X131.91 Y100.369 E.00316
;WIDTH:0.250419
G1 X132.155 Y100.473 E.00438
;WIDTH:0.314512
G1 X132.381 Y100.586 E.00544
G1 X132.417 Y100.789 E.00445
M204 S500
G1 X133.813 Y101.74 F4800
M204 S400
;WIDTH:0.119976
G1 F550
G1 X134.097 Y102.121 E.00291
G1 X134.337 Y102.503 E.00276
G1 X134.548 Y102.907 E.00279
G1 X134.717 Y103.316 E.00271
M204 S500
M73 P45 R0
M73 Q45 S0
G1 E-.075 F2400
;WIPE_START
G1 F3840
G1 X134.548 Y102.907 E-.26255
G1 X134.499 Y102.804 E-.06792
G1 X134.497 Y102.8 E-.0023
G1 X134.337 Y102.503 E-.20059
G1 X134.21 Y102.294 E-.14523
G1 X134.208 Y102.292 E-.00153
G1 X134.097 Y102.121 E-.12089
G1 X133.847 Y101.78 E-.25143
G1 X133.813 Y101.74 E-.03119
;WIPE_END
G1 E-.34137 F2400
G1 X134.48 Y107.586 F4800
G1 E1.501 F2400
M204 S400
;WIDTH:0.0956788
G1 F550
G1 X134.414 Y107.723 E.00064
M204 S500
G1 X134.274 Y107.967 F4800
M204 S400
;WIDTH:0.0949162
G1 F550
G1 X134.181 Y108.124 E.00075
M204 S500
G1 E-.075 F2400
;WIPE_START
G1 F3840
G1 X134.204 Y108.089 E-.0249
G1 X134.274 Y107.967 E-.08357
;WIPE_END
G1 E-1.31652 F2400
G1 X130.753 Y110.031 F4800
G1 E1.501 F2400
M204 S400
;WIDTH:0.0984884
M73 P46 R0
M73 Q46 S0
G1 F550
G1 X131.423 Y109.946 E.00298
M204 S500
G1 X131.427 Y109.969 F4800
M204 S400
;WIDTH:0.111128
G1 F550
G1 X130.703 Y109.999 E.00393
G1 X130.202 Y109.956 E.00272
G1 X129.69 Y109.85 E.00283
G1 X129.174 Y109.676 E.00295
M204 S500
G1 X129.141 Y109.663 F4800
M204 S400
;WIDTH:0.0971872
G1 F550
G1 X128.659 Y109.408 E.00235
G1 X128.088 Y109.021 E.00297
M204 S500
G1 X127.751 Y108.674 F4800
M204 S400
;WIDTH:0.106595
M73 P47 R0
M73 Q47 S0
G1 F550
G1 X128.244 Y109.115 E.00334
G1 X128.75 Y109.488 E.00318
M204 S500
G1 E-.075 F2400
;WIPE_START
G1 F3840
G1 X128.244 Y109.115 E-.37348
G1 X128.068 Y108.969 E-.13518
G1 X128.067 Y108.968 E-.00122
G1 X127.837 Y108.761 E-.1837
G1 X127.751 Y108.674 E-.07281
;WIPE_END
G1 E-.6586 F2400
G1 X118.402 Y109.721 F4800
G1 E1.501 F2400
M204 S400
;WIDTH:0.0976451
G1 F550
M73 P48 R0
M73 Q48 S0
G1 X118.157 Y109.631 E.00113
;WIDTH:0.170553
G1 X117.843 Y109.506 E.00343
;WIDTH:0.251323
G1 X117.547 Y109.356 E.00548
;WIDTH:0.302936
G1 X117.355 Y109.243 E.00461
M204 S500
G1 E-.075 F2400
;WIPE_START
G1 F3840
G1 X117.537 Y109.35 E-.12564
G1 X117.547 Y109.356 E-.00705
G1 X117.729 Y109.452 E-.12208
G1 X117.843 Y109.506 E-.07463
G1 X117.851 Y109.509 E-.00569
G1 X118.004 Y109.57 E-.0976
G1 X118.157 Y109.631 E-.0976
G1 X118.309 Y109.692 E-.0976
G1 X118.314 Y109.694 E-.00256
G1 X118.402 Y109.721 E-.055
;WIPE_END
G1 E-.73955 F2400
G1 X115.619 Y107.364 F4800
G1 E1.501 F2400
M204 S400
;WIDTH:0.09451
G1 F550
G1 X115.351 Y106.794 E.00258
M204 S500
G1 X115.027 Y105.339 F4800
M204 S400
;WIDTH:0.097016
G1 F550
M73 P49 R0
M73 Q49 S0
G1 X115.011 Y105.068 E.00116
M204 S500
G1 X115.011 Y105.008 F4800
M204 S400
;WIDTH:0.102474
G1 F550
G1 X115.025 Y104.478 E.00251
M204 S500
G1 X115.028 Y104.442 F4800
M204 S400
;WIDTH:0.102016
G1 F550
G1 X115.086 Y103.962 E.00227
M204 S500
G1 X115.109 Y103.812 F4800
M204 S400
;WIDTH:0.0965816
G1 F550
G1 X115.162 Y103.569 E.00106
M204 S500
G1 X115.712 Y102.067 F4800
M204 S400
;WIDTH:0.0950136
G1 F550
G1 X115.787 Y101.938 E.00062
M204 S500
G1 X115.852 Y101.83 F4800
M204 S400
;WIDTH:0.0969419
G1 F550
G1 X116.125 Y101.455 E.00199
M204 S500
; stop printing object SewingLineDecorative2.stl id:0 copy 0
M106 S201.45
;LAYER_CHANGE
;Z:0.4
;HEIGHT:0.2
;BEFORE_LAYER_CHANGE
G92 E0.0
;0.4


G1 E-.075 F2400
;WIPE_START
G1 F3840
G1 X116.084 Y101.507 E-.03939
G1 X115.901 Y101.757 E-.184
G1 X115.852 Y101.83 E-.0518
;WIPE_END
G1 E-1.14982 F2400
G1 Z.4 F720
;AFTER_LAYER_CHANGE
;0.4
M104 S210 ; set temperature
; printing object SewingLineDecorative2.stl id:0 copy 0
G1 X118.142 Y109.632 F4800
G1 E1.501 F2400
M204 S400
;TYPE:Perimeter
;WIDTH:0.45
