; generated by PrusaSlicer 2.5.0+win64 on 2023-02-16 at 01:36:19 UTC

; 

; external perimeters extrusion width = 0.45mm
; perimeters extrusion width = 0.45mm
; infill extrusion width = 0.45mm
; solid infill extrusion width = 0.45mm
; top infill extrusion width = 0.40mm
; first layer extrusion width = 0.42mm

M73 P0 R0
M73 Q0 S0
M201 X1000 Y1000 Z200 E5000 ; sets maximum accelerations, mm/sec^2
M203 X200 Y200 Z12 E120 ; sets maximum feedrates, mm / sec
M204 P1250 R1250 T1250 ; sets acceleration (P, T) and retract acceleration (R), mm/sec^2
M205 X8.00 Y8.00 Z0.40 E4.50 ; sets the jerk limits, mm/sec
M205 S0 T0 ; sets the minimum extruding and travel feed rate, mm/sec
M107
;TYPE:Custom
M862.3 P "MK3S" ; printer model check
M862.1 P0.4 ; nozzle diameter check
M115 U3.9.3 ; tell printer latest fw version
G90 ; use absolute coordinates
M83 ; extruder relative mode
M104 S230 ; set extruder temp
M140 S50 ; set bed temp
M190 S50 ; wait for bed temp
M109 S230 ; wait for extruder temp
G28 W ; home all without mesh bed level
G80 ; mesh bed leveling
G1 Y-3.0 F1000.0 ; go outside print area
G92 E0.0
G1 X60.0 E9.0 F1000.0 ; intro line
G1 X100.0 E12.5 F1000.0 ; intro line
G92 E0.0
M221 S95

; Don't change E values below. Excessive value can damage the printer.
M907 E430 ; set extruder motor current
G21 ; set units to millimeters
G90 ; use absolute coordinates
M83 ; use relative distances for extrusion
M900 K0
M107
;LAYER_CHANGE
;Z:0.2
;HEIGHT:0.2
;BEFORE_LAYER_CHANGE
G92 E0.0
;0.2


M73 P8 R0
M73 Q8 S0
G1 E-1 F2400
M73 P14 R0
M73 Q14 S0
G1 Z.2 F720
;AFTER_LAYER_CHANGE
;0.2
; printing object SewingLineDecorative.stl id:0 copy 0
G1 X139.413 Y106.74 F10800
G1 E1.001 F1500
M204 S800
;TYPE:External perimeter
;WIDTH:0.642748
M73 P16 R0
M73 Q16 S0
G1 F1030
G1 X140.136 Y106.563 E.04084
;WIDTH:0.627224
G1 X140.535 Y106.441 E.02229
;WIDTH:0.599636
M73 Q17 S0
G1 X140.934 Y106.318 E.02123
;WIDTH:0.572048
G1 X141.427 Y106.13 E.02555
;WIDTH:0.542537
G1 X141.92 Y105.942 E.02413
;WIDTH:0.513026
G1 X142.41 Y105.725 E.02303
;WIDTH:0.481368
G1 X142.819 Y105.519 E.01835
;WIDTH:0.455249
G1 X143.227 Y105.313 E.01726
;WIDTH:0.42913
G1 X144.206 Y104.734 E.04016
;WIDTH:0.38292
G1 X144.85 Y104.283 E.02445
M204 S1000
M73 P17 R0
G1 E-1 F2400
G1 X128.604 Y106.412 F10800
G1 E1.001 F1500
M204 S800
;WIDTH:0.549431
M73 Q18 S0
G1 F1030
G1 X128.671 Y106.391 E.00329
;WIDTH:0.50027
G1 X128.739 Y106.369 E.00297
;WIDTH:0.451108
G1 X128.807 Y106.347 E.00265
;WIDTH:0.401947
G1 X128.874 Y106.325 E.00233
;WIDTH:0.358754
G1 X129.188 Y106.34 E.00908
;WIDTH:0.383498
G1 X129.846 Y106.379 E.02052
;WIDTH:0.416361
M73 P18 R0
G1 X131.582 Y106.532 E.05953
;WIDTH:0.424598
G1 X134.093 Y106.796 E.08813
;WIDTH:0.416797
M73 Q19 S0
G1 X134.101 Y106.797 E.00028
;WIDTH:0.426333
G1 X135.854 Y106.894 E.06156
;WIDTH:0.421157
G1 X136.717 Y106.897 E.02985
;WIDTH:0.399475
G1 X137.47 Y106.861 E.02461
;WIDTH:0.388071
M73 P19 R0
G1 X137.993 Y106.811 E.01659
;WIDTH:0.378904
G1 X138.999 Y106.669 E.03122
;WIDTH:0.403197
G1 X139.068 Y106.681 E.00231
;WIDTH:0.451107
G1 X139.137 Y106.693 E.00262
;WIDTH:0.499017
M73 Q20 S0
G1 X139.206 Y106.705 E.00292
;WIDTH:0.546928
G1 X139.275 Y106.716 E.00323
;WIDTH:0.594838
G1 X139.344 Y106.728 E.00354
;WIDTH:0.642748
G1 X139.413 Y106.74 E.00384
G1 X139.354 Y106.781 E.00393
;WIDTH:0.594346
G1 X139.295 Y106.821 E.00361
;WIDTH:0.545944
G1 X139.236 Y106.861 E.0033
;WIDTH:0.497542
G1 X139.176 Y106.901 E.00298
;WIDTH:0.44914
G1 X139.117 Y106.941 E.00266
;WIDTH:0.400738
G1 X138.894 Y107.004 E.00759
;WIDTH:0.379173
G1 X137.824 Y107.17 E.03329
;WIDTH:0.388618
G1 X137.272 Y107.221 E.01755
;WIDTH:0.413571
G1 X136.392 Y107.27 E.02987
;WIDTH:0.418109
G1 X135.588 Y107.263 E.02758
;WIDTH:0.426333
G1 X134.724 Y107.223 E.03035
G1 X134.056 Y107.168 E.02348
;WIDTH:0.424598
M73 P20 R0
G1 X131.541 Y106.903 E.0883
;WIDTH:0.416361
G1 X129.813 Y106.718 E.05936
;WIDTH:0.383498
M73 Q21 S0
G1 X128.856 Y106.634 E.02992
;WIDTH:0.401947
G1 X128.791 Y106.605 E.00233
;WIDTH:0.451108
G1 X128.727 Y106.575 E.00265
;WIDTH:0.50027
G1 X128.662 Y106.545 E.00297
;WIDTH:0.549431
G1 X128.598 Y106.516 E.00329
;WIDTH:0.598593
G1 X128.533 Y106.486 E.00361
;WIDTH:0.647754
G1 X128.469 Y106.456 E.00393
G1 X128.536 Y106.434 E.00393
;WIDTH:0.598593
G1 X128.547 Y106.431 E.00056
M204 S1000
G1 E-1 F2400
G1 X122.719 Y107.019 F10800
M73 P21 R0
G1 E1.001 F1500
M204 S800
;WIDTH:0.38292
G1 F1030
M73 Q22 S0
G1 X123.245 Y106.867 E.01705
;WIDTH:0.383508
G1 X123.969 Y106.712 E.02306
;WIDTH:0.422436
G1 X124.664 Y106.593 E.02448
;WIDTH:0.451781
G1 X125.045 Y106.55 E.01431
;WIDTH:0.481126
G1 X125.425 Y106.507 E.01534
;WIDTH:0.524536
G1 X126.156 Y106.453 E.03228
;WIDTH:0.561112
G1 X126.887 Y106.426 E.03465
;WIDTH:0.561392
G1 X126.937 Y106.425 E.00238
;WIDTH:0.588827
M73 P22 R0
G1 X127.493 Y106.432 E.02777
;WIDTH:0.616262
G1 X128.049 Y106.44 E.02916
;WIDTH:0.647754
G1 X128.469 Y106.456 E.02323
M204 S1000
G1 E-1 F2400
G1 X131.786 Y100.79 F10800
M73 Q23 S0
G1 E1.001 F1500
M204 S800
;WIDTH:0.38292
G1 F1030
G1 X131.503 Y100.678 E.00946
G1 X131.231 Y100.477 E.01051
;WIDTH:0.42132
G1 X130.96 Y100.103 E.01601
;WIDTH:0.448594
G1 X130.818 Y99.664 E.0171
;WIDTH:0.453304
G1 X130.8 Y99.227 E.01644
M73 P23 R0
G1 X130.895 Y98.761 E.01785
;WIDTH:0.483348
G1 X130.999 Y98.469 E.01246
;WIDTH:0.504936
G1 X131.218 Y98.113 E.01771
;WIDTH:0.532708
G1 X131.601 Y97.756 E.02342
;WIDTH:0.568682
G1 X132.052 Y97.506 E.02482
G1 X132.571 Y97.377 E.0257
;WIDTH:0.540858
M73 Q24 S0
G1 X133.024 Y97.362 E.02064
;WIDTH:0.560642
G1 X133.64 Y97.526 E.03018
;WIDTH:0.56863
G1 X134.16 Y97.832 E.02902
;WIDTH:0.590738
G1 X134.698 Y98.339 E.03704
;WIDTH:0.603042
G1 X135.029 Y98.806 E.02932
;WIDTH:0.624148
G1 X135.249 Y99.326 E.03006
M204 S1000
G1 E-1 F2400
G1 X142.437 Y99.215 F10800
M73 P24 R0
G1 E1.001 F1500
M204 S800
;WIDTH:0.38292
M73 Q25 S0
G1 F1030
G1 X141.837 Y99.257 E.0187
G1 X141.339 Y99.152 E.01581
G1 X140.911 Y98.886 E.01568
G1 X140.531 Y98.457 E.01782
G1 X140.279 Y97.963 E.01725
G1 X140.162 Y97.435 E.0168
G1 X140.167 Y96.894 E.01683
M73 P25 R0
G1 X140.278 Y96.357 E.01707
G1 X140.503 Y95.847 E.01731
;WIDTH:0.39089
G1 X140.82 Y95.386 E.01783
;WIDTH:0.429012
G1 X141.216 Y94.99 E.01977
;WIDTH:0.454935
G1 X141.45 Y94.837 E.01051
;WIDTH:0.480858
M73 Q26 S0
G1 X141.683 Y94.684 E.01117
;WIDTH:0.500332
G1 X142.195 Y94.465 E.02331
;WIDTH:0.522896
G1 X142.803 Y94.361 E.02706
G1 X143.27 Y94.369 E.02054
;WIDTH:0.511838
G1 X143.779 Y94.424 E.02195
;WIDTH:0.533126
G1 X144.286 Y94.534 E.02326
;WIDTH:0.570168
G1 X145.091 Y94.833 E.04138
;WIDTH:0.60762
G1 X145.706 Y95.211 E.0373
;WIDTH:0.623736
G1 X146.357 Y95.818 E.0473
;WIDTH:0.630988
M73 P26 R0
G1 X146.489 Y95.981 E.01126
M204 S1000
G1 E-1 F2400
G1 X130.678 Y104.46 F10800
G1 E1.001 F1500
M204 S800
;WIDTH:0.419999
M73 Q27 S0
G1 F1030
M73 P27 R0
G1 X130.732 Y104.633 E.00625
G1 X130.818 Y104.68 E.00335
;WIDTH:0.388223
G1 X130.903 Y104.726 E.00307
;WIDTH:0.364677
G1 X133.994 Y104.86 E.09105
;WIDTH:0.36619
G1 X134.076 Y104.862 E.00242
;WIDTH:0.378821
M73 Q28 S0
G1 X135.638 Y104.884 E.04799
;WIDTH:0.39057
G1 X136.269 Y104.865 E.02008
;WIDTH:0.393184
G1 X137.27 Y104.827 E.0321
;WIDTH:0.404267
G1 X137.995 Y104.762 E.02406
;WIDTH:0.41292
G1 X139.435 Y104.559 E.0492
;WIDTH:0.415603
M73 P28 R0
G1 X139.977 Y104.451 E.01886
;WIDTH:0.424906
G1 X141.346 Y104.077 E.04957
;WIDTH:0.422703
G1 X141.86 Y103.903 E.01885
;WIDTH:0.418859
M73 Q29 S0
G1 X142.403 Y103.686 E.0201
;WIDTH:0.418612
G1 X142.93 Y103.442 E.01994
;WIDTH:0.419386
G1 X143.441 Y103.175 E.01987
G1 X143.932 Y102.876 E.01978
;WIDTH:0.415111
G1 X144.406 Y102.548 E.01962
;WIDTH:0.41581
G1 X145.07 Y102.002 E.02934
;WIDTH:0.417102
G1 X145.679 Y101.384 E.0297
;WIDTH:0.41964
M73 P29 R0
G1 X146.233 Y100.686 E.0307
;WIDTH:0.420817
G1 X146.717 Y99.85 E.03339
G1 X146.995 Y99.003 E.03081
;WIDTH:0.419947
G1 X147.084 Y98.209 E.02757
;WIDTH:0.416369
M73 Q30 S0
G1 X147.066 Y97.912 E.01016
G1 X146.971 Y97.284 E.02168
;WIDTH:0.399528
G1 X146.748 Y96.662 E.02156
;WIDTH:0.372151
G1 X146.581 Y96.392 E.00955
;WIDTH:0.405488
G1 X146.566 Y96.323 E.00233
;WIDTH:0.450588
G1 X146.551 Y96.255 E.00262
;WIDTH:0.495688
G1 X146.535 Y96.186 E.00291
;WIDTH:0.540788
G1 X146.52 Y96.118 E.0032
;WIDTH:0.585888
G1 X146.504 Y96.049 E.00349
;WIDTH:0.630988
G1 X146.489 Y95.981 E.00378
G1 X146.549 Y96.021 E.00386
;WIDTH:0.585888
G1 X146.608 Y96.06 E.00357
;WIDTH:0.540788
G1 X146.668 Y96.1 E.00327
;WIDTH:0.495688
G1 X146.728 Y96.14 E.00298
;WIDTH:0.450588
G1 X146.788 Y96.18 E.00268
;WIDTH:0.405488
G1 X146.848 Y96.219 E.00238
;WIDTH:0.372151
M73 P30 R0
G1 X147.056 Y96.545 E.01162
;WIDTH:0.399528
G1 X147.304 Y97.157 E.02156
G1 X147.35 Y97.358 E.0067
;WIDTH:0.416369
G1 X147.438 Y97.894 E.01856
;WIDTH:0.42552
G1 X147.431 Y98.614 E.02522
G1 X147.347 Y99.149 E.01894
;WIDTH:0.420627
G1 X147.064 Y99.999 E.03093
;WIDTH:0.431727
M73 Q31 S0
G1 X146.83 Y100.445 E.01793
G1 X146.512 Y100.944 E.02103
;WIDTH:0.421656
G1 X145.886 Y101.719 E.03454
;WIDTH:0.422957
G1 X145.185 Y102.405 E.0341
G1 X144.614 Y102.857 E.02529
;WIDTH:0.415398
G1 X144.117 Y103.199 E.02057
;WIDTH:0.420338
M73 P31 R0
G1 X143.594 Y103.522 E.02121
G1 X143.081 Y103.782 E.01985
;WIDTH:0.418494
G1 X142.536 Y104.037 E.02069
;WIDTH:0.418707
G1 X141.971 Y104.262 E.02087
G1 X141.137 Y104.536 E.0302
;WIDTH:0.424906
M73 Q32 S0
G1 X140.608 Y104.687 E.01922
G1 X140.038 Y104.818 E.02042
;WIDTH:0.415086
G1 X139.486 Y104.92 E.01912
;WIDTH:0.41292
G1 X138.889 Y105.022 E.02048
G1 X138.025 Y105.122 E.02945
;WIDTH:0.404267
G1 X137.153 Y105.185 E.0289
;WIDTH:0.394809
G1 X136.276 Y105.213 E.02824
;WIDTH:0.39057
M73 P32 R0
G1 X135.395 Y105.218 E.02801
;WIDTH:0.378821
G1 X134.069 Y105.185 E.04073
;WIDTH:0.36619
G1 X133.98 Y105.181 E.00265
;WIDTH:0.364677
M73 Q33 S0
G1 X130.889 Y105.039 E.09105
;WIDTH:0.382248
G1 X130.732 Y105.019 E.00493
;WIDTH:0.408049
G1 X130.574 Y104.999 E.00531
;WIDTH:0.419999
G1 X130.163 Y104.885 E.01473
;WIDTH:0.447308
G1 X129.87 Y104.821 E.01107
;WIDTH:0.474616
M73 P33 R0
G1 X129.578 Y104.757 E.01182
G1 X128.932 Y104.789 E.02552
;WIDTH:0.425498
G1 X127.675 Y104.89 E.04413
;WIDTH:0.419008
G1 X127.672 Y104.891 E.00012
;WIDTH:0.422146
G1 X125.972 Y105.069 E.0593
;WIDTH:0.420385
G1 X125.332 Y105.164 E.02234
;WIDTH:0.399031
M73 Q34 S0
G1 X124.708 Y105.286 E.02071
;WIDTH:0.406565
G1 X124.638 Y105.275 E.00234
;WIDTH:0.451756
G1 X124.569 Y105.264 E.00263
;WIDTH:0.496948
G1 X124.499 Y105.253 E.00292
;WIDTH:0.542139
G1 X124.43 Y105.242 E.00321
;WIDTH:0.587331
G1 X124.361 Y105.231 E.0035
;WIDTH:0.632522
G1 X124.291 Y105.22 E.00379
G1 X124.349 Y105.18 E.00381
;WIDTH:0.587331
G1 X124.406 Y105.139 E.00351
;WIDTH:0.542139
G1 X124.464 Y105.098 E.00322
;WIDTH:0.496948
G1 X124.521 Y105.057 E.00293
;WIDTH:0.451756
G1 X124.579 Y105.016 E.00264
;WIDTH:0.406565
G1 X124.637 Y104.976 E.00235
;WIDTH:0.399031
G1 X125.274 Y104.813 E.02142
;WIDTH:0.420385
G1 X125.925 Y104.695 E.02285
;WIDTH:0.422146
G1 X127.644 Y104.516 E.05995
;WIDTH:0.425498
M73 P34 R0
G1 X128.9 Y104.408 E.04413
;WIDTH:0.429834
G1 X128.989 Y104.401 E.00315
;WIDTH:0.467384
M73 Q35 S0
G1 X129.59 Y104.316 E.02356
G1 X130.119 Y104.111 E.02205
;WIDTH:0.430216
G1 X131.925 Y103.442 E.06822
;WIDTH:0.413848
G1 X132.014 Y103.407 E.00323
;WIDTH:0.40876
G1 X132.896 Y102.991 E.03262
G1 X133.485 Y102.637 E.02301
;WIDTH:0.413446
M73 P35 R0
G1 X134.009 Y102.239 E.0223
G1 X134.438 Y101.83 E.02008
;WIDTH:0.402795
G1 X134.869 Y101.238 E.02411
;WIDTH:0.375909
G1 X135.084 Y100.737 E.01659
;WIDTH:0.364
G1 X135.197 Y100.094 E.01919
;WIDTH:0.352955
M73 Q36 S0
G1 X135.166 Y99.744 E.00996
;WIDTH:0.398133
G1 X135.18 Y99.674 E.00231
;WIDTH:0.44331
G1 X135.194 Y99.605 E.0026
;WIDTH:0.488488
G1 X135.208 Y99.535 E.00289
;WIDTH:0.533665
G1 X135.222 Y99.466 E.00318
;WIDTH:0.578843
G1 X135.236 Y99.396 E.00348
;WIDTH:0.62402
G1 X135.249 Y99.326 E.00377
G1 X135.287 Y99.39 E.0039
;WIDTH:0.578843
G1 X135.324 Y99.453 E.0036
;WIDTH:0.533665
G1 X135.362 Y99.516 E.0033
;WIDTH:0.488488
G1 X135.399 Y99.579 E.00299
;WIDTH:0.44331
G1 X135.436 Y99.643 E.00269
;WIDTH:0.398133
G1 X135.474 Y99.706 E.00239
;WIDTH:0.357003
G1 X135.509 Y99.997 E.00844
;WIDTH:0.374429
G1 X135.464 Y100.53 E.01621
;WIDTH:0.378894
G1 X135.32 Y101.059 E.01685
;WIDTH:0.391947
G1 X135.067 Y101.574 E.01832
;WIDTH:0.3998
G1 X134.645 Y102.133 E.02284
;WIDTH:0.401328
M73 P36 R0
G1 X134.028 Y102.693 E.02735
G1 X133.363 Y103.14 E.02626
;WIDTH:0.397173
G1 X132.669 Y103.505 E.02539
;WIDTH:0.413848
G1 X132.054 Y103.789 E.02299
;WIDTH:0.430216
G1 X130.796 Y104.266 E.04767
M73 Q37 S0
G1 X130.709 Y104.409 E.00595
M204 S1000
G1 X130.508 Y104.524 F10800
G1 X130.298 Y104.443
M204 S800
;TYPE:Perimeter
;WIDTH:0.483384
G1 F1030
G1 X130.243 Y104.443 E.00222
G1 X130.215 Y104.491 E.00222
G1 X130.243 Y104.539 E.00222
G1 X130.298 Y104.539 E.00222
G1 X130.325 Y104.491 E.00222
M204 S1000
G1 E-1 F2400
G1 X121.249 Y106.37 F10800
G1 E1.001 F1500
M204 S800
;TYPE:External perimeter
;WIDTH:0.38292
M73 P37 R0
G1 F1030
M73 Q38 S0
G1 X121.857 Y106.077 E.02097
G1 X122.471 Y105.815 E.02077
;WIDTH:0.427881
G1 X122.886 Y105.662 E.01556
;WIDTH:0.472842
G1 X123.301 Y105.51 E.01737
;WIDTH:0.517218
G1 X123.606 Y105.416 E.01387
;WIDTH:0.561594
G1 X123.912 Y105.323 E.01517
;WIDTH:0.597058
G1 X124.102 Y105.272 E.00995
;WIDTH:0.632522
G1 X124.291 Y105.22 E.01058
M204 S1000
; stop printing object SewingLineDecorative.stl id:0 copy 0
;LAYER_CHANGE
;Z:0.4
;HEIGHT:0.2
;BEFORE_LAYER_CHANGE
G92 E0.0
;0.4


G1 E-1 F2400
G1 Z.4 F720
;AFTER_LAYER_CHANGE
;0.4
; printing object SewingLineDecorative.stl id:0 copy 0
M73 P38 R0
G1 X144.667 Y104.42 F10800
G1 E1.001 F1500
M204 S800
;WIDTH:0.38292
M73 Q39 S0
G1 F934
G1 X143.823 Y104.973 E.03139
;WIDTH:0.412604
G1 X143.355 Y105.231 E.01806
;WIDTH:0.442288
M73 P39 R0
G1 X142.887 Y105.489 E.01951
;WIDTH:0.475654
G1 X142.547 Y105.654 E.01497
;WIDTH:0.50902
G1 X142.206 Y105.819 E.01613
;WIDTH:0.5414
G1 X141.692 Y106.026 E.02531
;WIDTH:0.57378
G1 X141.177 Y106.234 E.02695
;WIDTH:0.600503
G1 X140.657 Y106.398 E.02783
;WIDTH:0.627226
M73 Q40 S0
G1 X140.136 Y106.563 E.02916
;WIDTH:0.643534
G1 X139.397 Y106.744 E.04179
M204 S1000
G1 E-1 F2400
G1 X128.541 Y106.412 F10800
G1 E1.001 F1500
M204 S800
;WIDTH:0.552863
M73 P40 R0
G1 F934
M73 Q41 S0
G1 X128.609 Y106.389 E.00332
;WIDTH:0.50298
G1 X128.676 Y106.367 E.00299
;WIDTH:0.453098
G1 X128.744 Y106.345 E.00267
;WIDTH:0.403215
G1 X128.811 Y106.323 E.00235
;WIDTH:0.358693
G1 X129.186 Y106.34 E.01084
;WIDTH:0.381937
G1 X129.846 Y106.379 E.02048
;WIDTH:0.400857
G1 X130.852 Y106.462 E.03304
;WIDTH:0.406936
G1 X131.082 Y106.482 E.00769
;WIDTH:0.453099
G1 X134.746 Y106.833 E.13812
;WIDTH:0.448419
G1 X135.857 Y106.89 E.04123
;WIDTH:0.428081
M73 P41 R0
G1 X136.386 Y106.898 E.01864
;WIDTH:0.414118
M73 Q42 S0
G1 X137.47 Y106.861 E.03685
;WIDTH:0.388071
G1 X137.993 Y106.811 E.01659
;WIDTH:0.378904
G1 X138.981 Y106.672 E.03065
;WIDTH:0.403324
G1 X139.05 Y106.684 E.00232
;WIDTH:0.451366
M73 P42 R0
G1 X139.12 Y106.696 E.00263
;WIDTH:0.499408
G1 X139.189 Y106.708 E.00294
;WIDTH:0.54745
G1 X139.259 Y106.72 E.00325
;WIDTH:0.595492
G1 X139.328 Y106.732 E.00356
;WIDTH:0.643534
G1 X139.397 Y106.744 E.00387
G1 X139.341 Y106.782 E.00374
;WIDTH:0.597847
G1 X139.285 Y106.82 E.00346
;WIDTH:0.55216
G1 X139.228 Y106.858 E.00317
;WIDTH:0.506473
G1 X139.172 Y106.896 E.00289
;WIDTH:0.460786
G1 X139.115 Y106.934 E.0026
;WIDTH:0.415098
G1 X139.004 Y106.969 E.00395
;WIDTH:0.385285
G1 X138.894 Y107.004 E.00363
;WIDTH:0.379173
G1 X137.824 Y107.17 E.03329
;WIDTH:0.388774
G1 X137.265 Y107.221 E.01776
;WIDTH:0.414118
G1 X136.392 Y107.27 E.0297
;WIDTH:0.428081
G1 X135.841 Y107.274 E.01942
;WIDTH:0.448419
M73 Q43 S0
G1 X134.565 Y107.226 E.04735
;WIDTH:0.453099
G1 X133.585 Y107.146 E.03687
G1 X131.042 Y106.844 E.09608
;WIDTH:0.406936
G1 X130.819 Y106.818 E.00749
;WIDTH:0.400857
M73 P43 R0
G1 X129.815 Y106.716 E.03304
;WIDTH:0.381937
G1 X128.795 Y106.633 E.03174
;WIDTH:0.403215
M73 Q44 S0
G1 X128.73 Y106.603 E.00235
;WIDTH:0.453098
G1 X128.665 Y106.574 E.00267
;WIDTH:0.50298
G1 X128.6 Y106.544 E.00299
;WIDTH:0.552863
G1 X128.535 Y106.515 E.00332
;WIDTH:0.602746
G1 X128.471 Y106.486 E.00364
