; generated by PrusaSlicer 2.5.0+win64 on 2023-02-16 at 14:56:52 UTC

; 

; external perimeters extrusion width = 0.45mm
; perimeters extrusion width = 0.45mm
; infill extrusion width = 0.45mm
; solid infill extrusion width = 0.45mm
; top infill extrusion width = 0.40mm
; first layer extrusion width = 0.42mm

M73 P0 R1
M73 Q0 S1
M201 X1000 Y1000 Z200 E5000 ; sets maximum accelerations, mm/sec^2
M203 X200 Y200 Z12 E120 ; sets maximum feedrates, mm / sec
M204 P1250 R1250 T1250 ; sets acceleration (P, T) and retract acceleration (R), mm/sec^2
M205 X8.00 Y8.00 Z0.40 E4.50 ; sets the jerk limits, mm/sec
M205 S0 T0 ; sets the minimum extruding and travel feed rate, mm/sec
M107
;TYPE:Custom
M862.3 P "MK3S" ; printer model check
M862.1 P0.4 ; nozzle diameter check
M115 U3.9.3 ; tell printer latest fw version
G90 ; use absolute coordinates
M83 ; extruder relative mode
M104 S215 ; set extruder temp
M140 S60 ; set bed temp
M190 S60 ; wait for bed temp
M109 S215 ; wait for extruder temp
G28 W ; home all without mesh bed level
G80 ; mesh bed leveling
G1 Y-3.0 F1000.0 ; go outside print area
G92 E0.0
G1 X60.0 E9.0 F1000.0 ; intro line
G1 X100.0 E12.5 F1000.0 ; intro line
G92 E0.0
M221 S95

; Don't change E values below. Excessive value can damage the printer.
M907 E430 ; set extruder motor current
G21 ; set units to millimeters
G90 ; use absolute coordinates
M83 ; use relative distances for extrusion
M900 K30 ; Filament gcode
M107
;LAYER_CHANGE
;Z:0.2
;HEIGHT:0.2
;BEFORE_LAYER_CHANGE
G92 E0.0
;0.2


M73 P4 R1
M73 Q4 S1
G1 E-1.5 F2400
M73 P7 R1
M73 Q7 S1
G1 Z.2 F720
;AFTER_LAYER_CHANGE
;0.2
; printing object SewingLineDecorative.stl id:0 copy 0
G1 X139.413 Y106.74 F10800
G1 E1.501 F2400
M204 S800
;TYPE:External perimeter
;WIDTH:0.642748
M73 P8 R1
M73 Q8 S1
G1 F374
G1 X140.136 Y106.563 E.03546
;WIDTH:0.627224
G1 X140.535 Y106.441 E.01935
;WIDTH:0.599636
G1 X140.934 Y106.318 E.01843
;WIDTH:0.572048
G1 X141.427 Y106.13 E.02219
;WIDTH:0.542537
G1 X141.92 Y105.942 E.02095
;WIDTH:0.513026
M73 Q9 S1
G1 X142.41 Y105.725 E.02
;WIDTH:0.481368
G1 X142.819 Y105.519 E.01593
;WIDTH:0.455249
G1 X143.227 Y105.313 E.01499
;WIDTH:0.42913
M73 P9 R1
G1 X144.206 Y104.734 E.03487
;WIDTH:0.38292
G1 X144.85 Y104.283 E.02123
M204 S1000
G1 E-.075 F2400
;WIPE_START
G1 F8640
G1 X144.727 Y104.373 E-.04024
G1 X144.206 Y104.734 E-.16728
G1 X143.227 Y105.313 E-.30004
G1 X142.819 Y105.519 E-.12077
G1 X142.41 Y105.725 E-.12077
G1 X141.92 Y105.942 E-.14136
G1 X141.427 Y106.13 E-.13933
G1 X140.934 Y106.318 E-.13933
G1 X140.535 Y106.441 E-.11004
G1 X140.265 Y106.523 E-.07458
;WIPE_END
G1 E-.07125 F2400
G1 X128.604 Y106.412 F10800
G1 E1.501 F2400
M204 S800
;WIDTH:0.549431
M73 Q10 S1
G1 F374
G1 X128.671 Y106.391 E.00286
;WIDTH:0.50027
G1 X128.739 Y106.369 E.00258
;WIDTH:0.451108
G1 X128.807 Y106.347 E.0023
;WIDTH:0.401947
G1 X128.874 Y106.325 E.00203
;WIDTH:0.358754
G1 X129.188 Y106.34 E.00788
;WIDTH:0.383498
G1 X129.846 Y106.379 E.01782
;WIDTH:0.416361
M73 P10 R1
G1 X131.582 Y106.532 E.05168
;WIDTH:0.424598
G1 X134.093 Y106.796 E.07651
;WIDTH:0.416797
G1 X134.101 Y106.797 E.00025
;WIDTH:0.426333
M73 Q11 S1
G1 X135.854 Y106.894 E.05345
;WIDTH:0.421157
G1 X136.717 Y106.897 E.02592
;WIDTH:0.399475
M73 P11 R1
G1 X137.47 Y106.861 E.02136
;WIDTH:0.388071
G1 X137.993 Y106.811 E.01441
;WIDTH:0.378904
G1 X138.999 Y106.669 E.0271
;WIDTH:0.403197
M73 Q12 S1
G1 X139.068 Y106.681 E.002
;WIDTH:0.451107
G1 X139.137 Y106.693 E.00227
;WIDTH:0.499017
G1 X139.206 Y106.705 E.00254
;WIDTH:0.546928
G1 X139.275 Y106.716 E.0028
;WIDTH:0.594838
G1 X139.344 Y106.728 E.00307
;WIDTH:0.642748
G1 X139.413 Y106.74 E.00334
G1 X139.354 Y106.781 E.00341
;WIDTH:0.594346
G1 X139.295 Y106.821 E.00314
;WIDTH:0.545944
G1 X139.236 Y106.861 E.00286
;WIDTH:0.497542
M73 P12 R1
G1 X139.176 Y106.901 E.00259
;WIDTH:0.44914
G1 X139.117 Y106.941 E.00231
;WIDTH:0.400738
G1 X138.894 Y107.004 E.00659
;WIDTH:0.379173
G1 X137.824 Y107.17 E.0289
;WIDTH:0.388618
G1 X137.272 Y107.221 E.01523
;WIDTH:0.413571
G1 X136.392 Y107.27 E.02593
;WIDTH:0.418109
G1 X135.588 Y107.263 E.02395
;WIDTH:0.426333
G1 X134.724 Y107.223 E.02635
M73 Q13 S1
G1 X134.056 Y107.168 E.02038
;WIDTH:0.424598
G1 X131.541 Y106.903 E.07666
;WIDTH:0.416361
M73 P13 R1
G1 X129.813 Y106.718 E.05153
;WIDTH:0.383498
G1 X128.856 Y106.634 E.02598
;WIDTH:0.401947
M73 Q14 S1
G1 X128.791 Y106.605 E.00203
;WIDTH:0.451108
G1 X128.727 Y106.575 E.0023
;WIDTH:0.50027
M73 P14 R1
G1 X128.662 Y106.545 E.00258
;WIDTH:0.549431
G1 X128.598 Y106.516 E.00286
;WIDTH:0.598593
G1 X128.533 Y106.486 E.00313
;WIDTH:0.647754
G1 X128.469 Y106.456 E.00341
G1 X128.536 Y106.434 E.00341
;WIDTH:0.598593
G1 X128.547 Y106.431 E.00049
M204 S1000
G1 E-.075 F2400
;WIPE_START
G1 F8640
G1 X128.671 Y106.391 E-.03458
G1 X128.739 Y106.369 E-.01875
G1 X128.807 Y106.347 E-.01875
G1 X128.874 Y106.325 E-.01875
G1 X129.188 Y106.34 E-.08295
G1 X129.846 Y106.379 E-.17386
G1 X131.582 Y106.532 E-.45991
G1 X133.64 Y106.748 E-.54621
;WIPE_END
G1 E-.07125 F2400
G1 X122.719 Y107.019 F10800
G1 E1.501 F2400
M204 S800
;WIDTH:0.38292
G1 F374
G1 X123.245 Y106.867 E.0148
;WIDTH:0.383508
G1 X123.969 Y106.712 E.02002
;WIDTH:0.422436
G1 X124.664 Y106.593 E.02125
;WIDTH:0.451781
M73 Q15 S1
G1 X125.045 Y106.55 E.01243
;WIDTH:0.481126
G1 X125.425 Y106.507 E.01332
;WIDTH:0.524536
G1 X126.156 Y106.453 E.02803
;WIDTH:0.561112
M73 P15 R1
G1 X126.887 Y106.426 E.03009
;WIDTH:0.561392
G1 X126.937 Y106.425 E.00207
;WIDTH:0.588827
G1 X127.493 Y106.432 E.02411
;WIDTH:0.616262
G1 X128.049 Y106.44 E.02532
;WIDTH:0.647754
G1 X128.469 Y106.456 E.02017
M204 S1000
G1 E-.075 F2400
;WIPE_START
G1 F8640
G1 X128.049 Y106.44 E-.11082
G1 X127.493 Y106.432 E-.14675
M73 Q16 S1
G1 X126.937 Y106.425 E-.14675
G1 X126.887 Y106.426 E-.01326
G1 X126.156 Y106.453 E-.19294
G1 X125.425 Y106.507 E-.1934
G1 X125.045 Y106.55 E-.101
G1 X124.664 Y106.593 E-.101
G1 X123.969 Y106.712 E-.18612
G1 X123.37 Y106.84 E-.16171
;WIPE_END
G1 E-.07125 F2400
G1 X131.786 Y100.79 F10800
G1 E1.501 F2400
M204 S800
;WIDTH:0.38292
M73 P16 R1
G1 F374
G1 X131.503 Y100.678 E.00821
G1 X131.231 Y100.477 E.00913
;WIDTH:0.42132
G1 X130.96 Y100.103 E.0139
;WIDTH:0.448594
G1 X130.818 Y99.664 E.01484
;WIDTH:0.453304
G1 X130.8 Y99.227 E.01428
G1 X130.895 Y98.761 E.0155
;WIDTH:0.483348
G1 X130.999 Y98.469 E.01082
;WIDTH:0.504938
G1 X131.218 Y98.113 E.01537
;WIDTH:0.532708
M73 Q17 S1
G1 X131.601 Y97.756 E.02033
;WIDTH:0.568682
G1 X132.052 Y97.506 E.02155
G1 X132.571 Y97.377 E.02232
;WIDTH:0.540858
G1 X133.024 Y97.362 E.01792
;WIDTH:0.560642
G1 X133.64 Y97.526 E.0262
;WIDTH:0.56863
M73 P17 R1
G1 X134.16 Y97.832 E.02519
;WIDTH:0.590738
G1 X134.698 Y98.339 E.03216
;WIDTH:0.603042
G1 X135.029 Y98.806 E.02545
;WIDTH:0.624148
G1 X135.249 Y99.326 E.0261
M204 S1000
G1 E-.075 F2400
;WIPE_START
M73 Q18 S1
G1 F8640
G1 X135.246 Y99.318 E-.00225
G1 X135.029 Y98.806 E-.14697
G1 X134.698 Y98.339 E-.15102
G1 X134.16 Y97.832 E-.19507
G1 X133.64 Y97.526 E-.15927
G1 X133.024 Y97.362 E-.16816
G1 X132.571 Y97.377 E-.11958
G1 X132.052 Y97.506 E-.14105
G1 X131.601 Y97.756 E-.13622
G1 X131.229 Y98.103 E-.13415
;WIPE_END
G1 E-.07125 F2400
G1 X142.437 Y99.215 F10800
G1 E1.501 F2400
M204 S800
;WIDTH:0.38292
M73 P18 R1
G1 F374
G1 X141.837 Y99.257 E.01623
G1 X141.339 Y99.152 E.01373
G1 X140.911 Y98.886 E.01361
G1 X140.531 Y98.457 E.01547
G1 X140.279 Y97.963 E.01498
G1 X140.162 Y97.435 E.01459
M73 Q19 S1
G1 X140.167 Y96.894 E.01461
G1 X140.278 Y96.357 E.01482
G1 X140.503 Y95.847 E.01503
;WIDTH:0.39089
G1 X140.82 Y95.386 E.01548
;WIDTH:0.429012
M73 P19 R1
G1 X141.216 Y94.99 E.01717
;WIDTH:0.454935
G1 X141.45 Y94.837 E.00912
;WIDTH:0.480858
G1 X141.683 Y94.684 E.0097
;WIDTH:0.500332
G1 X142.195 Y94.465 E.02024
;WIDTH:0.522896
G1 X142.803 Y94.361 E.02349
G1 X143.27 Y94.369 E.01784
;WIDTH:0.511838
M73 Q20 S1
G1 X143.779 Y94.424 E.01906
;WIDTH:0.533126
G1 X144.286 Y94.534 E.02019
;WIDTH:0.570168
G1 X145.091 Y94.833 E.03593
;WIDTH:0.60762
G1 X145.706 Y95.211 E.03238
;WIDTH:0.623736
M73 P20 R1
G1 X146.357 Y95.818 E.04106
;WIDTH:0.630988
G1 X146.489 Y95.981 E.00978
M204 S1000
G1 E-.075 F2400
;WIPE_START
G1 F8640
G1 X146.357 Y95.818 E-.05526
G1 X145.706 Y95.211 E-.23495
G1 X145.091 Y94.833 E-.19055
G1 X144.286 Y94.534 E-.22645
G1 X143.779 Y94.424 E-.13688
G1 X143.27 Y94.369 E-.13507
G1 X142.803 Y94.361 E-.12349
G1 X142.195 Y94.465 E-.16266
G1 X141.887 Y94.597 E-.08846
;WIPE_END
G1 E-.07125 F2400
G1 X130.678 Y104.46 F10800
G1 E1.501 F2400
M204 S800
;WIDTH:0.419999
M73 Q21 S1
G1 F374
G1 X130.732 Y104.633 E.00543
G1 X130.818 Y104.68 E.00291
;WIDTH:0.388223
G1 X130.903 Y104.726 E.00267
;WIDTH:0.364677
G1 X133.994 Y104.86 E.07904
;WIDTH:0.36619
G1 X134.076 Y104.862 E.0021
;WIDTH:0.378821
M73 P21 R1
G1 X135.638 Y104.884 E.04167
;WIDTH:0.39057
G1 X136.269 Y104.865 E.01743
;WIDTH:0.393184
M73 Q22 S1
G1 X137.27 Y104.827 E.02787
;WIDTH:0.404267
G1 X137.995 Y104.762 E.02089
;WIDTH:0.41292
M73 P22 R1
G1 X139.435 Y104.559 E.04271
;WIDTH:0.415603
G1 X139.977 Y104.451 E.01637
;WIDTH:0.424906
G1 X141.346 Y104.077 E.04304
;WIDTH:0.422703
M73 Q23 S1
G1 X141.86 Y103.903 E.01637
;WIDTH:0.418859
G1 X142.403 Y103.686 E.01745
;WIDTH:0.418612
M73 P23 R1
G1 X142.93 Y103.442 E.01731
;WIDTH:0.419386
G1 X143.441 Y103.175 E.01725
G1 X143.932 Y102.876 E.01717
;WIDTH:0.415111
G1 X144.406 Y102.548 E.01703
;WIDTH:0.41581
G1 X145.07 Y102.002 E.02547
;WIDTH:0.417102
G1 X145.679 Y101.384 E.02578
;WIDTH:0.41964
M73 Q24 S1
G1 X146.233 Y100.686 E.02665
;WIDTH:0.420817
G1 X146.717 Y99.85 E.02899
M73 P24 R1
G1 X146.995 Y99.003 E.02674
;WIDTH:0.419947
G1 X147.084 Y98.209 E.02394
;WIDTH:0.416369
G1 X147.066 Y97.912 E.00882
G1 X146.971 Y97.284 E.01882
;WIDTH:0.399528
M73 Q25 S1
G1 X146.748 Y96.662 E.01872
;WIDTH:0.372151
G1 X146.581 Y96.392 E.0083
;WIDTH:0.405488
G1 X146.566 Y96.323 E.00202
;WIDTH:0.450588
G1 X146.551 Y96.255 E.00227
;WIDTH:0.495688
G1 X146.535 Y96.186 E.00253
;WIDTH:0.540788
G1 X146.52 Y96.118 E.00278
;WIDTH:0.585888
M73 P25 R1
G1 X146.504 Y96.049 E.00303
;WIDTH:0.630988
G1 X146.489 Y95.981 E.00328
G1 X146.549 Y96.021 E.00336
;WIDTH:0.585888
G1 X146.608 Y96.06 E.0031
;WIDTH:0.540788
G1 X146.668 Y96.1 E.00284
;WIDTH:0.495688
G1 X146.728 Y96.14 E.00258
;WIDTH:0.450588
G1 X146.788 Y96.18 E.00233
;WIDTH:0.405488
G1 X146.848 Y96.219 E.00207
;WIDTH:0.372151
G1 X147.056 Y96.545 E.01009
;WIDTH:0.399528
G1 X147.304 Y97.157 E.01872
G1 X147.35 Y97.358 E.00582
;WIDTH:0.416369
G1 X147.438 Y97.894 E.01611
;WIDTH:0.42552
G1 X147.431 Y98.614 E.02189
G1 X147.347 Y99.149 E.01645
;WIDTH:0.420627
G1 X147.064 Y99.999 E.02686
;WIDTH:0.431727
M73 Q26 S1
G1 X146.83 Y100.445 E.01556
G1 X146.512 Y100.944 E.01826
;WIDTH:0.421656
G1 X145.886 Y101.719 E.02998
;WIDTH:0.422957
M73 P26 R1
G1 X145.185 Y102.405 E.02961
G1 X144.614 Y102.857 E.02196
;WIDTH:0.415398
G1 X144.117 Y103.199 E.01785
;WIDTH:0.420338
G1 X143.594 Y103.522 E.01841
M73 Q27 S1
G1 X143.081 Y103.782 E.01723
;WIDTH:0.418494
G1 X142.536 Y104.037 E.01797
;WIDTH:0.418707
G1 X141.971 Y104.262 E.01812
M73 P27 R1
G1 X141.137 Y104.536 E.02621
;WIDTH:0.424906
G1 X140.608 Y104.687 E.01669
G1 X140.038 Y104.818 E.01773
;WIDTH:0.415086
G1 X139.486 Y104.92 E.0166
;WIDTH:0.41292
G1 X138.889 Y105.022 E.01778
G1 X138.025 Y105.122 E.02557
;WIDTH:0.404267
M73 Q28 S1
G1 X137.153 Y105.185 E.02509
;WIDTH:0.394809
G1 X136.276 Y105.213 E.02452
;WIDTH:0.39057
M73 P28 R1
G1 X135.395 Y105.218 E.02431
;WIDTH:0.378821
G1 X134.069 Y105.185 E.03536
;WIDTH:0.36619
G1 X133.98 Y105.181 E.0023
;WIDTH:0.364677
G1 X130.889 Y105.039 E.07904
;WIDTH:0.382248
G1 X130.732 Y105.019 E.00428
;WIDTH:0.408049
M73 P29 R1
M73 Q29 S1
G1 X130.574 Y104.999 E.00461
;WIDTH:0.419999
G1 X130.163 Y104.885 E.01279
;WIDTH:0.447308
G1 X129.87 Y104.821 E.00961
;WIDTH:0.474616
G1 X129.578 Y104.757 E.01026
G1 X128.932 Y104.789 E.02215
;WIDTH:0.425498
G1 X127.675 Y104.89 E.03831
;WIDTH:0.419008
G1 X127.672 Y104.891 E.0001
;WIDTH:0.422146
M73 Q30 S1
G1 X125.972 Y105.069 E.05148
;WIDTH:0.420385
G1 X125.332 Y105.164 E.01939
;WIDTH:0.399031
M73 P30 R1
G1 X124.708 Y105.286 E.01798
;WIDTH:0.406565
M73 P30 R0
G1 X124.638 Y105.275 E.00203
;WIDTH:0.451756
G1 X124.569 Y105.264 E.00228
;WIDTH:0.496948
G1 X124.499 Y105.253 E.00253
;WIDTH:0.542139
G1 X124.43 Y105.242 E.00279
;WIDTH:0.587331
G1 X124.361 Y105.231 E.00304
;WIDTH:0.632522
G1 X124.291 Y105.22 E.00329
G1 X124.349 Y105.18 E.0033
;WIDTH:0.587331
G1 X124.406 Y105.139 E.00305
;WIDTH:0.542139
G1 X124.464 Y105.098 E.0028
;WIDTH:0.496948
G1 X124.521 Y105.057 E.00254
;WIDTH:0.451756
G1 X124.579 Y105.016 E.00229
;WIDTH:0.406565
G1 X124.637 Y104.976 E.00204
;WIDTH:0.399031
G1 X125.274 Y104.813 E.01859
;WIDTH:0.420385
G1 X125.925 Y104.695 E.01984
;WIDTH:0.422146
G1 X127.644 Y104.516 E.05205
;WIDTH:0.425498
M73 Q31 S1
G1 X128.9 Y104.408 E.03831
;WIDTH:0.429834
M73 P31 R0
M73 Q31 S0
G1 X128.989 Y104.401 E.00273
;WIDTH:0.467384
G1 X129.59 Y104.316 E.02045
G1 X130.119 Y104.111 E.01914
;WIDTH:0.430217
G1 X131.925 Y103.442 E.05923
;WIDTH:0.413849
G1 X132.014 Y103.407 E.0028
;WIDTH:0.40876
M73 Q32 S0
G1 X132.896 Y102.991 E.02832
M73 P32 R0
G1 X133.485 Y102.637 E.01998
;WIDTH:0.413446
G1 X134.009 Y102.239 E.01936
G1 X134.438 Y101.83 E.01743
;WIDTH:0.402795
G1 X134.869 Y101.238 E.02093
;WIDTH:0.375909
G1 X135.084 Y100.737 E.0144
;WIDTH:0.364001
G1 X135.197 Y100.094 E.01666
;WIDTH:0.352955
M73 Q33 S0
G1 X135.166 Y99.744 E.00865
;WIDTH:0.398133
G1 X135.18 Y99.674 E.002
;WIDTH:0.44331
G1 X135.194 Y99.605 E.00226
;WIDTH:0.488488
M73 P33 R0
G1 X135.208 Y99.535 E.00251
;WIDTH:0.533665
G1 X135.222 Y99.466 E.00277
;WIDTH:0.578843
G1 X135.236 Y99.396 E.00302
;WIDTH:0.62402
G1 X135.249 Y99.326 E.00327
G1 X135.287 Y99.39 E.00339
;WIDTH:0.578843
G1 X135.324 Y99.453 E.00313
;WIDTH:0.533665
G1 X135.362 Y99.516 E.00286
;WIDTH:0.488488
G1 X135.399 Y99.579 E.0026
;WIDTH:0.44331
G1 X135.436 Y99.643 E.00234
;WIDTH:0.398133
G1 X135.474 Y99.706 E.00207
;WIDTH:0.357003
G1 X135.509 Y99.997 E.00732
;WIDTH:0.374429
G1 X135.464 Y100.53 E.01407
;WIDTH:0.378894
G1 X135.32 Y101.059 E.01463
;WIDTH:0.391949
G1 X135.067 Y101.574 E.01591
;WIDTH:0.3998
G1 X134.645 Y102.133 E.01983
;WIDTH:0.401328
G1 X134.028 Y102.693 E.02374
G1 X133.363 Y103.14 E.0228
;WIDTH:0.397173
M73 Q34 S0
G1 X132.669 Y103.505 E.02204
;WIDTH:0.413849
G1 X132.054 Y103.789 E.01996
;WIDTH:0.430217
M73 P34 R0
G1 X130.796 Y104.266 E.04138
G1 X130.709 Y104.409 E.00516
M204 S1000
G1 X130.508 Y104.524 F10800
G1 X130.298 Y104.443
M204 S800
;TYPE:Perimeter
;WIDTH:0.483386
G1 F374
G1 X130.243 Y104.443 E.00193
G1 X130.215 Y104.491 E.00193
G1 X130.243 Y104.539 E.00193
G1 X130.298 Y104.539 E.00193
G1 X130.325 Y104.491 E.00193
M204 S1000
G1 E-.075 F2400
;WIPE_START
G1 F8640
G1 X130.298 Y104.539 E-.01453
G1 X130.243 Y104.539 E-.01453
G1 X130.215 Y104.491 E-.01453
G1 X130.243 Y104.443 E-.01453
G1 X130.298 Y104.443 E-.01453
;WIPE_END
G1 E-1.35235 F2400
G1 X121.249 Y106.37 F10800
G1 E1.501 F2400
M204 S800
;TYPE:External perimeter
;WIDTH:0.38292
M73 Q35 S0
G1 F374
M73 P35 R0
G1 X121.857 Y106.077 E.01821
G1 X122.471 Y105.815 E.01803
;WIDTH:0.427881
G1 X122.886 Y105.662 E.01351
;WIDTH:0.472842
G1 X123.301 Y105.51 E.01508
;WIDTH:0.517218
G1 X123.606 Y105.416 E.01204
;WIDTH:0.561594
G1 X123.912 Y105.323 E.01317
;WIDTH:0.597058
G1 X124.102 Y105.272 E.00864
;WIDTH:0.632522
G1 X124.291 Y105.22 E.00919
M204 S1000
; stop printing object SewingLineDecorative.stl id:0 copy 0
M106 S201.45
;LAYER_CHANGE
;Z:0.4
;HEIGHT:0.2
;BEFORE_LAYER_CHANGE
G92 E0.0
;0.4


G1 E-.075 F2400
;WIPE_START
G1 F8640
G1 X124.102 Y105.272 E-.0518
G1 X123.912 Y105.323 E-.0518
G1 X123.606 Y105.416 E-.08439
G1 X123.301 Y105.51 E-.08439
G1 X122.886 Y105.662 E-.1166
G1 X122.471 Y105.815 E-.1166
G1 X121.857 Y106.077 E-.17622
G1 X121.249 Y106.37 E-.17795
;WIPE_END
G1 E-.56526 F2400
G1 Z.4 F720
;AFTER_LAYER_CHANGE
;0.4
M104 S210 ; set temperature
; printing object SewingLineDecorative.stl id:0 copy 0
G1 X144.667 Y104.42 F10800
M73 Q36 S0
G1 E1.501 F2400
M204 S800
;WIDTH:0.38292
M73 P36 R0
G1 F363
G1 X143.823 Y104.973 E.02725
;WIDTH:0.412604
G1 X143.355 Y105.231 E.01568
;WIDTH:0.442288
G1 X142.887 Y105.489 E.01693
;WIDTH:0.475654
G1 X142.547 Y105.654 E.013
