; generated by PrusaSlicer 2.5.0+win64 on 2023-02-16 at 19:58:01 UTC

; 

; external perimeters extrusion width = 0.45mm
; perimeters extrusion width = 0.45mm
; infill extrusion width = 0.45mm
; solid infill extrusion width = 0.45mm
; top infill extrusion width = 0.40mm
; first layer extrusion width = 0.42mm

M73 P0 R1
M73 Q0 S1
M201 X1000 Y1000 Z200 E5000 ; sets maximum accelerations, mm/sec^2
M203 X200 Y200 Z12 E120 ; sets maximum feedrates, mm / sec
M204 P1250 R1250 T1250 ; sets acceleration (P, T) and retract acceleration (R), mm/sec^2
M205 X8.00 Y8.00 Z0.40 E4.50 ; sets the jerk limits, mm/sec
M205 S0 T0 ; sets the minimum extruding and travel feed rate, mm/sec
M107
;TYPE:Custom
M862.3 P "MK3S" ; printer model check
M862.1 P0.4 ; nozzle diameter check
M115 U3.9.3 ; tell printer latest fw version
G90 ; use absolute coordinates
M83 ; extruder relative mode
M104 S215 ; set extruder temp
M140 S60 ; set bed temp
M190 S60 ; wait for bed temp
M109 S215 ; wait for extruder temp
G28 W ; home all without mesh bed level
G80 ; mesh bed leveling
G1 Y-3.0 F1000.0 ; go outside print area
G92 E0.0
G1 X60.0 E9.0 F1000.0 ; intro line
G1 X100.0 E12.5 F1000.0 ; intro line
G92 E0.0
M221 S95

; Don't change E values below. Excessive value can damage the printer.
M907 E430 ; set extruder motor current
G21 ; set units to millimeters
G90 ; use absolute coordinates
M83 ; use relative distances for extrusion
M900 K30 ; Filament gcode
M107
;LAYER_CHANGE
;Z:0.2
;HEIGHT:0.2
;BEFORE_LAYER_CHANGE
G92 E0.0
;0.2


M73 P6 R0
M73 Q6 S0
G1 E-1.5 F2400
M73 P9 R0
M73 Q9 S0
G1 Z.2 F720
;AFTER_LAYER_CHANGE
;0.2
; printing object SewingLineDecorative2-1.stl id:0 copy 0
M73 P10 R0
M73 Q10 S0
G1 X142.649 Y101.284 F4800
G1 E1.501 F2400
M204 S400
;TYPE:Perimeter
;WIDTH:0.42
M73 P12 R0
M73 Q12 S0
G1 F552
G1 X142.773 Y101.332 E.00398
G1 X143.303 Y101.623 E.01812
G1 X143.802 Y101.988 E.01849
G1 X143.995 Y102.161 E.00779
G1 X144.279 Y102.516 E.0136
G1 X144.534 Y102.918 E.01426
G1 X144.746 Y103.348 E.01436
M73 P13 R0
M73 Q13 S0
G1 X144.917 Y103.802 E.01451
G1 X145.047 Y104.274 E.01468
G1 X145.136 Y104.761 E.01481
G1 X145.183 Y105.251 E.01473
G1 X145.182 Y106.009 E.0227
G1 X145.135 Y106.493 E.01457
G1 X144.985 Y107.317 E.02509
G1 X144.828 Y107.826 E.01595
G1 X144.623 Y108.301 E.01548
G1 X144.374 Y108.737 E.01503
G1 X144.086 Y109.134 E.01469
M73 P14 R0
M73 Q14 S0
G1 X143.763 Y109.492 E.01444
G1 X143.408 Y109.808 E.01424
G1 X143.025 Y110.082 E.01409
G1 X142.618 Y110.311 E.01398
G1 X142.192 Y110.494 E.0139
G1 X141.75 Y110.63 E.01384
G1 X141.296 Y110.717 E.01383
G1 X140.835 Y110.754 E.01385
G1 X140.37 Y110.739 E.01393
G1 X139.905 Y110.67 E.01409
G1 X139.442 Y110.546 E.01435
G1 X138.985 Y110.365 E.01473
M73 P15 R0
M73 Q15 S0
G1 X138.536 Y110.124 E.01526
G1 X138.098 Y109.82 E.01597
G1 X137.673 Y109.448 E.01689
G1 X137.063 Y108.774 E.02724
G1 X136.63 Y108.223 E.02097
G1 X136.211 Y107.642 E.02147
G1 X133.393 Y103.545 E.1489
G1 X132.68 Y102.589 E.0357
M73 P16 R0
M73 Q16 S0
G1 X132.286 Y102.141 E.01785
G1 X131.865 Y101.742 E.01736
M73 P17 R0
M73 Q17 S0
G1 X131.626 Y101.548 E.00924
G1 X131.157 Y101.234 E.0169
G1 X130.882 Y101.086 E.00934
G1 X130.359 Y100.874 E.01691
G1 X130.05 Y100.789 E.00959
G1 X129.479 Y100.706 E.0173
G1 X129.146 Y100.701 E.00995
G1 X128.544 Y100.767 E.01816
G1 X128.205 Y100.847 E.01043
G1 X127.609 Y101.06 E.01894
G1 X127.312 Y101.213 E.01
G1 X127.034 Y101.391 E.00988
G1 X126.579 Y101.776 E.01786
M73 P18 R0
M73 Q18 S0
G1 X126.355 Y102.018 E.00987
G1 X126.012 Y102.489 E.01746
G1 X125.852 Y102.765 E.00956
G1 X125.607 Y103.298 E.01754
G1 X125.422 Y103.86 E.01772
G1 X125.297 Y104.434 E.01759
G1 X125.228 Y105.011 E.01741
G1 X125.213 Y105.584 E.01714
G1 X125.25 Y106.168 E.01755
G1 X125.37 Y106.763 E.01817
G1 X125.517 Y107.201 E.01382
M73 P19 R0
M73 Q19 S0
G1 X125.759 Y107.729 E.0174
G1 X125.976 Y108.106 E.01301
G1 X126.496 Y108.902 E.02848
G1 X126.789 Y109.276 E.01423
G1 X127.185 Y109.673 E.0168
G1 X126.879 Y109.513 E.01036
G1 X126.507 Y109.262 E.01343
G1 X126.172 Y108.976 E.0132
G1 X125.872 Y108.656 E.01311
G1 X125.607 Y108.306 E.01315
G1 X125.378 Y107.927 E.01327
M73 P20 R0
M73 Q20 S0
G1 X125.185 Y107.521 E.01345
G1 X125.029 Y107.092 E.01368
G1 X124.91 Y106.642 E.01392
G1 X124.829 Y106.176 E.01416
G1 X124.788 Y105.697 E.0144
G1 X124.786 Y105.209 E.01463
G1 X124.824 Y104.715 E.01483
G1 X124.903 Y104.22 E.01501
G1 X125.022 Y103.727 E.01518
G1 X125.182 Y103.24 E.01534
G1 X125.386 Y102.756 E.01572
G1 X125.539 Y102.449 E.01027
M73 P21 R0
M73 Q21 S0
G1 X125.711 Y102.168 E.00987
G1 X125.905 Y101.904 E.00983
G1 X126.121 Y101.657 E.00982
G1 X126.357 Y101.428 E.00983
G1 X126.61 Y101.218 E.00986
G1 X126.88 Y101.028 E.00989
G1 X127.165 Y100.858 E.00992
G1 X127.769 Y100.583 E.01988
G1 X128.407 Y100.4 E.01988
G1 X129.058 Y100.314 E.01964
G1 X129.475 Y100.314 E.01251
G1 X130.039 Y100.375 E.01698
G1 X130.356 Y100.447 E.00973
M73 P22 R0
M73 Q22 S0
G1 X130.666 Y100.546 E.00973
G1 X130.972 Y100.673 E.00994
G1 X131.243 Y100.813 E.00914
G1 X131.65 Y101.07 E.0144
G1 X131.896 Y101.255 E.00922
G1 X132.259 Y101.57 E.01438
G1 X132.831 Y102.171 E.02485
G1 X133.354 Y102.83 E.02518
G1 X134.269 Y104.11 E.04713
G1 X136.764 Y107.719 E.13136
M73 P23 R0
M73 Q23 S0
G1 X137.149 Y108.23 E.01917
G1 X137.548 Y108.699 E.01842
G1 X137.864 Y109.03 E.01372
M73 P24 R0
M73 Q24 S0
G1 X138.196 Y109.337 E.01355
G1 X138.546 Y109.611 E.01331
G1 X138.806 Y109.783 E.0093
G1 X139.22 Y110.002 E.01404
G1 X139.738 Y110.167 E.01629
G1 X140.223 Y110.268 E.01482
G1 X140.698 Y110.312 E.01429
G1 X141.16 Y110.3 E.01385
G1 X141.606 Y110.234 E.0135
G1 X142.032 Y110.116 E.01322
G1 X142.432 Y109.949 E.013
G1 X142.806 Y109.739 E.01283
M73 P25 R0
M73 Q25 S0
G1 X143.149 Y109.489 E.01272
G1 X143.461 Y109.203 E.01266
G1 X143.742 Y108.887 E.01264
G1 X143.989 Y108.545 E.01267
G1 X144.205 Y108.178 E.01272
G1 X144.388 Y107.792 E.01281
G1 X144.538 Y107.387 E.01292
G1 X144.655 Y106.968 E.01304
G1 X144.74 Y106.536 E.01318
G1 X144.79 Y106.093 E.01333
G1 X144.806 Y105.642 E.01354
G1 X144.779 Y105.045 E.01788
G1 X144.707 Y104.568 E.01444
M73 P26 R0
M73 Q26 S0
G1 X144.533 Y103.979 E.01839
G1 X144.288 Y103.437 E.01782
G1 X144.001 Y102.948 E.01697
G1 X143.547 Y102.268 E.0245
G1 X143.348 Y101.993 E.01017
G1 X142.906 Y101.501 E.01978
G1 X142.695 Y101.323 E.00829
M204 S500
G1 E-.075 F2400
;WIPE_START
G1 F3840
G1 X142.773 Y101.332 E-.04657
G1 X143.303 Y101.623 E-.35927
G1 X143.802 Y101.988 E-.36659
G1 X143.995 Y102.161 E-.15447
G1 X144.279 Y102.516 E-.2696
G1 X144.421 Y102.74 E-.15724
;WIPE_END
G1 E-.07125 F2400
G1 X139.432 Y100.513 F4800
G1 E1.501 F2400
M204 S400
;TYPE:External perimeter
M73 P27 R0
M73 Q27 S0
G1 F552
G1 X140.081 Y100.367 E.01992
G1 X140.389 Y100.343 E.00923
G1 X141.039 Y100.427 E.01964
G1 X141.685 Y100.574 E.01984
G1 X142.324 Y100.751 E.01985
G1 X142.933 Y100.99 E.01957
G1 X143.506 Y101.304 E.01957
M73 P28 R0
M73 Q28 S0
G1 X144.039 Y101.694 E.01978
G1 X144.27 Y101.901 E.00929
G1 X144.587 Y102.296 E.01516
G1 X144.863 Y102.733 E.01548
G1 X145.093 Y103.198 E.01551
G1 X145.276 Y103.685 E.01559
G1 X145.415 Y104.19 E.01569
G1 X145.509 Y104.709 E.01578
G1 X145.561 Y105.232 E.01576
G1 X145.559 Y106.027 E.0238
G1 X145.508 Y106.545 E.01558
M73 P29 R0
M73 Q29 S0
G1 X145.352 Y107.407 E.02623
G1 X145.182 Y107.957 E.01724
G1 X144.96 Y108.469 E.01671
G1 X144.692 Y108.942 E.01627
G1 X144.38 Y109.372 E.01592
G1 X144.029 Y109.76 E.01566
G1 X143.643 Y110.103 E.01546
G1 X143.227 Y110.4 E.0153
G1 X142.786 Y110.65 E.01519
G1 X142.322 Y110.849 E.01511
M73 P30 R0
M73 Q30 S0
G1 X141.841 Y110.997 E.01507
G1 X141.347 Y111.091 E.01506
G1 X140.844 Y111.131 E.0151
G1 X140.337 Y111.115 E.0152
G1 X139.829 Y111.04 E.01538
G1 X139.324 Y110.905 E.01565
G1 X138.826 Y110.708 E.01604
G1 X138.338 Y110.446 E.01656
G1 X137.865 Y110.118 E.01725
G1 X137.409 Y109.718 E.01818
G1 X136.774 Y109.017 E.02829
M73 P31 R0
M73 Q31 S0
G1 X136.329 Y108.45 E.0216
G1 X135.902 Y107.859 E.02183
G1 X133.086 Y103.764 E.14881
G1 X132.387 Y102.826 E.03503
M73 P32 R0
M73 Q32 S0
G1 X132.014 Y102.403 E.01688
G1 X131.617 Y102.026 E.0164
G1 X131.401 Y101.852 E.0083
G1 X130.962 Y101.557 E.01584
G1 X130.722 Y101.428 E.00817
G1 X130.238 Y101.232 E.01563
G1 X129.973 Y101.159 E.00822
M73 P33 R0
M73 Q33 S0
G1 X129.448 Y101.083 E.01588
G1 X129.164 Y101.078 E.00852
G1 X128.608 Y101.139 E.01676
G1 X128.312 Y101.209 E.00911
G1 X127.76 Y101.407 E.01756
G1 X127.501 Y101.54 E.00873
G1 X127.258 Y101.695 E.00861
G1 X126.84 Y102.049 E.0164
G1 X126.647 Y102.258 E.00851
G1 X126.328 Y102.695 E.01622
G1 X126.187 Y102.939 E.00844
G1 X125.958 Y103.436 E.01636
G1 X125.787 Y103.959 E.0165
G1 X125.67 Y104.497 E.01647
M73 P34 R0
M73 Q34 S0
G1 X125.605 Y105.039 E.01635
G1 X125.59 Y105.577 E.01611
G1 X125.625 Y106.119 E.01626
G1 X125.735 Y106.665 E.01669
G1 X125.868 Y107.062 E.01252
G1 X126.095 Y107.556 E.01628
G1 X126.297 Y107.908 E.01217
G1 X126.802 Y108.682 E.02767
G1 X127.073 Y109.028 E.01315
G1 X127.382 Y109.346 E.01327
M73 P35 R0
M73 Q35 S0
G1 X127.724 Y109.632 E.01336
G1 X127.978 Y109.807 E.00924
G1 X128.388 Y110.026 E.01391
G1 X128.838 Y110.182 E.01425
G1 X130.027 Y110.407 E.03624
G1 X130.739 Y110.469 E.02141
G1 X130.172 Y110.617 E.01756
G1 X129.541 Y110.696 E.01905
G1 X129.068 Y110.637 E.01425
G1 X128.758 Y110.575 E.00948
M73 P36 R0
M73 Q36 S0
G1 X127.627 Y110.262 E.03515
G1 X127.134 Y110.071 E.01582
G1 X126.685 Y109.837 E.01514
G1 X126.278 Y109.562 E.01471
G1 X125.911 Y109.249 E.01446
G1 X125.583 Y108.9 E.01434
G1 X125.295 Y108.517 E.01433
G1 X125.046 Y108.106 E.01441
G1 X124.837 Y107.667 E.01455
G1 X124.669 Y107.205 E.01473
M73 P37 R0
M73 Q37 S0
G1 X124.541 Y106.723 E.01493
G1 X124.455 Y106.225 E.01514
G1 X124.411 Y105.714 E.01535
G1 X124.409 Y105.195 E.01555
G1 X124.45 Y104.671 E.01574
G1 X124.533 Y104.146 E.01592
G1 X124.659 Y103.623 E.01609
G1 X124.829 Y103.108 E.01625
G1 X125.043 Y102.599 E.01653
G1 X125.208 Y102.266 E.01112
G1 X125.398 Y101.957 E.01085
G1 X125.611 Y101.667 E.01078
M73 P38 R0
M73 Q38 S0
G1 X125.847 Y101.397 E.01075
G1 X126.105 Y101.147 E.01074
G1 X126.381 Y100.918 E.01075
G1 X126.675 Y100.711 E.01076
G1 X126.983 Y100.527 E.01077
G1 X127.305 Y100.366 E.01078
G1 X127.639 Y100.229 E.01079
G1 X127.981 Y100.117 E.01078
G1 X128.33 Y100.031 E.01077
G1 X128.684 Y99.97 E.01076
G1 X129.04 Y99.937 E.01068
G1 X129.755 Y99.953 E.02142
G1 X130.108 Y100.003 E.01067
G1 X130.455 Y100.083 E.01067
G1 X130.796 Y100.191 E.0107
M73 P39 R0
M73 Q39 S0
G1 X131.131 Y100.331 E.01088
G1 X131.431 Y100.486 E.01009
G1 X131.864 Y100.759 E.01535
G1 X132.133 Y100.961 E.01008
G1 X132.52 Y101.297 E.01532
G1 X133.116 Y101.924 E.02589
G1 X133.655 Y102.603 E.02597
G1 X134.577 Y103.894 E.0475
G1 X137.07 Y107.498 E.13122
M73 P40 R0
M73 Q40 S0
G1 X137.443 Y107.994 E.01861
G1 X137.828 Y108.446 E.01776
G1 X138.128 Y108.761 E.01304
M73 P41 R0
M73 Q41 S0
G1 X138.441 Y109.05 E.01273
G1 X138.767 Y109.305 E.0124
G1 X138.998 Y109.458 E.00829
G1 X139.367 Y109.653 E.01249
G1 X139.834 Y109.802 E.01469
G1 X140.279 Y109.894 E.01359
G1 X140.71 Y109.934 E.01299
G1 X141.128 Y109.923 E.0125
G1 X141.528 Y109.864 E.01211
G1 X141.908 Y109.758 E.01183
G1 X142.267 Y109.61 E.01162
G1 X142.602 Y109.421 E.0115
G1 X142.91 Y109.196 E.01144
G1 X143.193 Y108.938 E.01144
M73 P42 R0
M73 Q42 S0
G1 X143.447 Y108.651 E.01149
G1 X143.673 Y108.338 E.01157
G1 X143.871 Y108.002 E.01168
G1 X144.04 Y107.645 E.01182
G1 X144.179 Y107.271 E.01196
G1 X144.288 Y106.881 E.01212
G1 X144.367 Y106.478 E.01228
G1 X144.414 Y106.065 E.01245
G1 X144.429 Y105.644 E.01263
G1 X144.403 Y105.082 E.01684
G1 X144.338 Y104.65 E.01307
G1 X144.179 Y104.111 E.01683
G1 X143.952 Y103.611 E.01645
M73 P43 R0
M73 Q43 S0
G1 X143.681 Y103.148 E.01604
G1 X143.054 Y102.23 E.0333
G1 X142.643 Y101.773 E.01842
G1 X142.175 Y101.377 E.01835
G1 X141.914 Y101.202 E.0094
G1 X141.64 Y101.05 E.00939
G1 X141.348 Y100.929 E.00946
G1 X140.747 Y100.776 E.01855
G1 X139.879 Y100.644 E.02631
G1 X139.2 Y100.592 E.02037
M73 P44 R0
M73 Q44 S0
G1 X139.376 Y100.532 E.00555
M204 S500
G1 X139.832 Y100.492 F4800
G1 E-.075 F2400
;WIPE_START
G1 F3840
G1 X140.081 Y100.367 E-.43041
G1 X140.389 Y100.343 E-.18308
G1 X141.039 Y100.427 E-.38943
G1 X141.615 Y100.558 E-.35083
;WIPE_END
G1 E-.07125 F2400
G1 X141.427 Y100.732 F4800
G1 E1.501 F2400
M204 S400
;TYPE:Gap fill
;WIDTH:0.125223
G1 F552
G1 X141.629 Y100.797 E.00139
;WIDTH:0.180072
G1 X141.9 Y100.901 E.00316
;WIDTH:0.250418
G1 X142.145 Y101.005 E.00438
;WIDTH:0.31451
G1 X142.37 Y101.118 E.00544
G1 X142.407 Y101.321 E.00445
M204 S500
G1 X143.803 Y102.271 F4800
M204 S400
;WIDTH:0.119981
G1 F552
G1 X144.087 Y102.653 E.00291
G1 X144.327 Y103.034 E.00276
M73 P45 R0
M73 Q45 S0
G1 X144.538 Y103.439 E.00279
G1 X144.707 Y103.847 E.00271
M204 S500
G1 E-.075 F2400
;WIPE_START
G1 F3840
G1 X144.538 Y103.439 E-.26255
G1 X144.489 Y103.335 E-.06794
G1 X144.487 Y103.332 E-.0023
G1 X144.327 Y103.034 E-.20058
G1 X144.199 Y102.826 E-.14523
G1 X144.198 Y102.823 E-.00153
G1 X144.087 Y102.653 E-.12088
G1 X143.837 Y102.311 E-.25143
G1 X143.803 Y102.271 E-.03119
;WIPE_END
G1 E-.34135 F2400
G1 X144.469 Y108.118 F4800
G1 E1.501 F2400
M204 S400
;WIDTH:0.0956794
G1 F552
G1 X144.404 Y108.254 E.00064
M204 S500
G1 X144.264 Y108.499 F4800
M204 S400
;WIDTH:0.0949125
G1 F552
G1 X144.171 Y108.656 E.00075
M204 S500
G1 E-.075 F2400
;WIPE_START
M73 P46 R0
M73 Q46 S0
G1 F3840
G1 X144.194 Y108.621 E-.02488
G1 X144.264 Y108.499 E-.08346
;WIPE_END
G1 E-1.31666 F2400
G1 X140.743 Y110.562 F4800
G1 E1.501 F2400
M204 S400
;WIDTH:0.0984897
G1 F552
G1 X141.413 Y110.478 E.00298
M204 S500
G1 X141.417 Y110.5 F4800
M204 S400
;WIDTH:0.11113
G1 F552
G1 X140.692 Y110.53 E.00393
G1 X140.192 Y110.488 E.00272
G1 X139.68 Y110.381 E.00283
G1 X139.164 Y110.207 E.00295
M204 S500
G1 X139.131 Y110.195 F4800
M204 S400
;WIDTH:0.0971872
M73 P47 R0
M73 Q47 S0
G1 F552
G1 X138.649 Y109.939 E.00235
G1 X138.078 Y109.552 E.00297
M204 S500
G1 X137.74 Y109.205 F4800
M204 S400
;WIDTH:0.106593
G1 F552
G1 X138.234 Y109.646 E.00334
G1 X138.74 Y110.02 E.00318
M204 S500
G1 E-.075 F2400
;WIPE_START
G1 F3840
G1 X138.234 Y109.646 E-.37348
G1 X138.058 Y109.501 E-.13519
G1 X138.057 Y109.499 E-.00122
G1 X137.827 Y109.293 E-.18371
G1 X137.74 Y109.205 E-.07281
;WIPE_END
G1 E-.65859 F2400
G1 X128.392 Y110.253 F4800
G1 E1.501 F2400
M204 S400
;WIDTH:0.0976451
M73 P48 R0
M73 Q48 S0
G1 F552
G1 X128.147 Y110.163 E.00113
;WIDTH:0.170551
G1 X127.833 Y110.037 E.00343
;WIDTH:0.251325
G1 X127.537 Y109.887 E.00548
;WIDTH:0.302943
G1 X127.344 Y109.774 E.00461
M204 S500
G1 E-.075 F2400
;WIPE_START
G1 F3840
G1 X127.527 Y109.882 E-.12562
G1 X127.537 Y109.887 E-.00705
G1 X127.719 Y109.984 E-.1221
G1 X127.833 Y110.037 E-.07464
G1 X127.841 Y110.041 E-.00569
G1 X127.994 Y110.102 E-.0976
G1 X128.147 Y110.163 E-.0976
G1 X128.299 Y110.224 E-.0976
G1 X128.303 Y110.225 E-.00256
G1 X128.392 Y110.253 E-.05498
;WIPE_END
G1 E-.73956 F2400
G1 X125.609 Y107.896 F4800
G1 E1.501 F2400
M204 S400
;WIDTH:0.09451
G1 F552
G1 X125.341 Y107.326 E.00258
M204 S500
G1 X125.017 Y105.87 F4800
M204 S400
;WIDTH:0.097016
M73 P49 R0
M73 Q49 S0
G1 F552
G1 X125.001 Y105.6 E.00116
M204 S500
G1 X125.001 Y105.54 F4800
M204 S400
;WIDTH:0.102474
G1 F552
G1 X125.015 Y105.01 E.00251
M204 S500
G1 X125.018 Y104.974 F4800
M204 S400
;WIDTH:0.102016
G1 F552
G1 X125.075 Y104.493 E.00227
M204 S500
G1 X125.099 Y104.343 F4800
M204 S400
;WIDTH:0.0965816
G1 F552
G1 X125.151 Y104.1 E.00106
M204 S500
G1 X125.702 Y102.598 F4800
M204 S400
;WIDTH:0.0950136
G1 F552
G1 X125.777 Y102.469 E.00062
M204 S500
G1 X125.842 Y102.361 F4800
M204 S400
;WIDTH:0.0969432
G1 F552
G1 X126.115 Y101.987 E.00199
M204 S500
; stop printing object SewingLineDecorative2-1.stl id:0 copy 0
M106 S201.45
;LAYER_CHANGE
;Z:0.4
;HEIGHT:0.2
;BEFORE_LAYER_CHANGE
G92 E0.0
;0.4


G1 E-.075 F2400
;WIPE_START
G1 F3840
G1 X126.074 Y102.039 E-.03938
G1 X125.89 Y102.289 E-.18399
G1 X125.842 Y102.361 E-.05181
;WIPE_END
G1 E-1.14982 F2400
G1 Z.4 F720
;AFTER_LAYER_CHANGE
;0.4
M104 S210 ; set temperature
; printing object SewingLineDecorative2-1.stl id:0 copy 0
G1 X141.748 Y100.836 F4800
M73 P50 R0
M73 Q50 S0
G1 E1.501 F2400
M204 S400
;TYPE:Perimeter
